; generated by PrusaSlicer 2.0.0+win64 on 2024-11-21 at 10:04:49

; 

; external perimeters extrusion width = 0.45mm
; perimeters extrusion width = 0.45mm
; infill extrusion width = 0.45mm
; solid infill extrusion width = 0.45mm
; top infill extrusion width = 0.40mm
; first layer extrusion width = 0.42mm

M73 P0 R79
M73 Q0 S79
M201 X1000 Y1000 Z1000 E5000 ; sets maximum accelerations, mm/sec^2
M203 X200 Y200 Z12 E120 ; sets maximum feedrates, mm/sec
M204 P1250 R1250 T1250 ; sets acceleration (P, T) and retract acceleration (R), mm/sec^2
M205 X8.00 Y8.00 Z0.40 E1.50 ; sets the jerk limits, mm/sec
M205 S0 T0 ; sets the minimum extruding and travel feed rate, mm/sec
M107
M115 U3.7.1 ; tell printer latest fw version
G90 ; use absolute coordinates
M83 ; extruder relative mode
M104 S215 ; set extruder temp
M140 S60 ; set bed temp
M190 S60 ; wait for bed temp
M109 S215 ; wait for extruder temp
G28 W ; home all without mesh bed level
G80 ; mesh bed leveling
G1 Y-3.0 F1000.0 ; go outside print area
G92 E0.0
G1 X60.0 E9.0 F1000.0 ; intro line
M73 Q0 S79
M73 P0 R79
G1 X100.0 E12.5 F1000.0 ; intro line
G92 E0.0
M221 S95
M900 K30 ; Filament gcode
G21 ; set units to millimeters
G90 ; use absolute coordinates
M83 ; use relative distances for extrusion
;BEFORE_LAYER_CHANGE
G92 E0.0
;0.2


G1 E-0.80000 F2100.00000
G1 Z0.600 F10800.000
;AFTER_LAYER_CHANGE
;0.2
G1 X43.551 Y42.061
G1 Z0.200
G1 E0.80000 F2100.00000
M204 S1000
G1 F1200
G1 X44.156 Y41.974 E0.01919
G1 X146.166 Y41.974 E3.19844
G1 X146.992 Y42.137 E0.02642
G1 X147.696 Y42.601 E0.02642
G1 X148.174 Y43.300 E0.02653
G1 X148.350 Y44.123 E0.02642
G1 X148.350 Y106.199 E1.94633
G1 X148.274 Y106.736 E0.01703
G1 X148.069 Y107.236 E0.01692
G1 X147.746 Y107.672 E0.01703
G1 X147.329 Y108.014 E0.01692
G1 X146.774 Y108.263 E0.01908
G1 X146.168 Y108.351 E0.01919
G1 X44.148 Y108.351 E3.19878
G1 X43.606 Y108.279 E0.01714
G1 X43.098 Y108.075 E0.01714
G1 X42.657 Y107.751 E0.01714
G1 X42.310 Y107.329 E0.01714
G1 X42.061 Y106.774 E0.01908
G1 X41.974 Y106.175 E0.01896
G1 X41.974 Y44.140 E1.94507
G1 X42.047 Y43.598 E0.01714
G1 X42.251 Y43.095 E0.01703
G1 X42.573 Y42.657 E0.01703
G1 X42.996 Y42.310 E0.01714
G1 X43.496 Y42.085 E0.01719
G1 F8640
G1 X44.156 Y41.974 E-0.15468
G1 X46.778 Y41.974 E-0.60532
G1 E-0.04000 F2100.00000
G1 Z0.800 F10800.000
G1 X44.749 Y44.749
G1 Z0.200
G1 E0.80000 F2100.00000
G1 F1200
G1 X145.575 Y44.749 E3.16132
G1 X145.575 Y105.575 E1.90715
G1 X44.749 Y105.575 E3.16132
G1 X44.749 Y44.809 E1.90527
G1 X44.372 Y44.372 F10800.000
G1 F1200
G1 X145.952 Y44.372 E3.18497
G1 X145.952 Y105.952 E1.93080
G1 X44.372 Y105.952 E3.18497
G1 X44.372 Y44.432 E1.92892
G1 X44.766 Y44.444 F10800.000
G1 F8640
G1 X47.664 Y44.430 E-0.76000
G1 E-0.04000 F2100.00000
G1 Z0.800 F10800.000
G1 X45.626 Y105.462
G1 Z0.200
G1 E0.80000 F2100.00000
G1 F1200
G1 X45.032 Y104.868 E0.02637
G1 X45.032 Y104.334 E0.01677
G1 X45.990 Y105.292 E0.04255
G1 X46.524 Y105.292 E0.01677
G1 X45.032 Y103.800 E0.06626
G1 X45.032 Y103.266 E0.01677
G1 X47.058 Y105.292 E0.08997
G1 X47.592 Y105.292 E0.01677
G1 X45.032 Y102.732 E0.11369
G1 X45.032 Y102.198 E0.01677
G1 X48.126 Y105.292 E0.13740
G1 X48.660 Y105.292 E0.01677
G1 X45.032 Y101.664 E0.16111
G1 X45.032 Y101.130 E0.01677
G1 X49.194 Y105.292 E0.18482
G1 X49.728 Y105.292 E0.01677
G1 X45.032 Y100.596 E0.20854
G1 X45.032 Y100.062 E0.01677
G1 X50.262 Y105.292 E0.23225
G1 X50.796 Y105.292 E0.01677
G1 X45.032 Y99.528 E0.25596
G1 X45.032 Y98.994 E0.01677
G1 X51.330 Y105.292 E0.27967
G1 X51.864 Y105.292 E0.01677
G1 X45.032 Y98.460 E0.30339
G1 X45.032 Y97.926 E0.01677
G1 X52.398 Y105.292 E0.32710
G1 X52.933 Y105.292 E0.01677
G1 X45.032 Y97.392 E0.35081
G1 X45.032 Y96.858 E0.01677
G1 X53.467 Y105.292 E0.37453
G1 X54.001 Y105.292 E0.01677
M73 Q1 S78
G1 X45.032 Y96.324 E0.39824
M73 P1 R78
G1 X45.032 Y95.790 E0.01677
G1 X54.535 Y105.292 E0.42195
G1 X55.069 Y105.292 E0.01677
G1 X45.032 Y95.256 E0.44566
G1 X45.032 Y94.722 E0.01677
G1 X55.603 Y105.292 E0.46938
G1 X56.137 Y105.292 E0.01677
G1 X45.032 Y94.188 E0.49309
G1 X45.032 Y93.654 E0.01677
G1 X56.671 Y105.292 E0.51680
G1 X57.205 Y105.292 E0.01677
G1 X45.032 Y93.120 E0.54051
G1 X45.032 Y92.586 E0.01677
G1 X57.739 Y105.292 E0.56423
G1 X58.273 Y105.292 E0.01677
G1 X45.032 Y92.052 E0.58794
G1 X45.032 Y91.518 E0.01677
G1 X58.807 Y105.292 E0.61165
G1 X59.341 Y105.292 E0.01677
G1 X45.032 Y90.984 E0.63537
G1 X45.032 Y90.450 E0.01677
G1 X59.875 Y105.292 E0.65908
G1 X60.409 Y105.292 E0.01677
G1 X45.032 Y89.916 E0.68279
G1 X45.032 Y89.382 E0.01677
G1 X60.943 Y105.292 E0.70650
G1 X61.477 Y105.292 E0.01677
G1 X45.032 Y88.847 E0.73022
G1 X45.032 Y88.313 E0.01677
G1 X62.011 Y105.292 E0.75393
G1 X62.545 Y105.292 E0.01677
G1 X45.032 Y87.779 E0.77764
G1 X45.032 Y87.245 E0.01677
G1 X63.079 Y105.292 E0.80135
G1 X63.613 Y105.292 E0.01677
G1 X45.032 Y86.711 E0.82507
G1 X45.032 Y86.177 E0.01677
G1 X64.147 Y105.292 E0.84878
G1 X64.681 Y105.292 E0.01677
G1 X45.032 Y85.643 E0.87249
G1 X45.032 Y85.109 E0.01677
G1 X65.215 Y105.292 E0.89621
G1 X65.749 Y105.292 E0.01677
G1 X45.032 Y84.575 E0.91992
G1 X45.032 Y84.041 E0.01677
G1 X66.283 Y105.292 E0.94363
G1 X66.817 Y105.292 E0.01677
G1 X45.032 Y83.507 E0.96734
G1 X45.032 Y82.973 E0.01677
G1 X67.351 Y105.292 E0.99106
G1 X67.885 Y105.292 E0.01677
G1 X45.032 Y82.439 E1.01477
G1 X45.032 Y81.905 E0.01677
G1 X68.419 Y105.292 E1.03848
G1 X68.953 Y105.292 E0.01677
G1 X45.032 Y81.371 E1.06219
G1 X45.032 Y80.837 E0.01677
G1 X69.487 Y105.292 E1.08591
G1 X70.021 Y105.292 E0.01677
G1 X45.032 Y80.303 E1.10962
G1 X45.032 Y79.769 E0.01677
G1 X70.555 Y105.292 E1.13333
G1 X71.089 Y105.292 E0.01677
G1 X45.032 Y79.235 E1.15704
G1 X45.032 Y78.701 E0.01677
G1 X71.623 Y105.292 E1.18076
G1 X72.157 Y105.292 E0.01677
G1 X45.032 Y78.167 E1.20447
G1 X45.032 Y77.633 E0.01677
G1 X72.691 Y105.292 E1.22818
G1 X73.225 Y105.292 E0.01677
G1 X45.032 Y77.099 E1.25190
G1 X45.032 Y76.565 E0.01677
G1 X73.759 Y105.292 E1.27561
G1 X74.293 Y105.292 E0.01677
G1 X45.032 Y76.031 E1.29932
G1 X45.032 Y75.497 E0.01677
G1 X74.827 Y105.292 E1.32303
G1 X75.361 Y105.292 E0.01677
G1 X45.032 Y74.963 E1.34675
G1 X45.032 Y74.429 E0.01677
G1 X75.895 Y105.292 E1.37046
M73 Q2 S77
M73 P2 R77
G1 X76.429 Y105.292 E0.01677
G1 X45.032 Y73.895 E1.39417
G1 X45.032 Y73.361 E0.01677
G1 X76.963 Y105.292 E1.41788
G1 X77.497 Y105.292 E0.01677
G1 X45.032 Y72.827 E1.44160
G1 X45.032 Y72.293 E0.01677
G1 X78.031 Y105.292 E1.46531
G1 X78.566 Y105.292 E0.01677
G1 X45.032 Y71.759 E1.48902
G1 X45.032 Y71.225 E0.01677
G1 X79.100 Y105.292 E1.51274
G1 X79.634 Y105.292 E0.01677
G1 X45.032 Y70.691 E1.53645
G1 X45.032 Y70.157 E0.01677
G1 X80.168 Y105.292 E1.56016
G1 X80.702 Y105.292 E0.01677
G1 X45.032 Y69.623 E1.58387
G1 X45.032 Y69.089 E0.01677
G1 X81.236 Y105.292 E1.60759
G1 X81.770 Y105.292 E0.01677
G1 X45.032 Y68.555 E1.63130
G1 X45.032 Y68.021 E0.01677
G1 X82.304 Y105.292 E1.65501
G1 X82.838 Y105.292 E0.01677
G1 X45.032 Y67.487 E1.67872
G1 X45.032 Y66.953 E0.01677
G1 X83.372 Y105.292 E1.70244
G1 X83.906 Y105.292 E0.01677
G1 X45.032 Y66.419 E1.72615
G1 X45.032 Y65.885 E0.01677
G1 X84.440 Y105.292 E1.74986
G1 X84.974 Y105.292 E0.01677
G1 X45.032 Y65.351 E1.77358
G1 X45.032 Y64.817 E0.01677
G1 X85.508 Y105.292 E1.79729
G1 X86.042 Y105.292 E0.01677
G1 X45.032 Y64.283 E1.82100
G1 X45.032 Y63.748 E0.01677
G1 X86.576 Y105.292 E1.84471
G1 X87.110 Y105.292 E0.01677
G1 X45.032 Y63.214 E1.86843
G1 X45.032 Y62.680 E0.01677
G1 X87.644 Y105.292 E1.89214
G1 X88.178 Y105.292 E0.01677
G1 X45.032 Y62.146 E1.91585
M73 Q3 S76
M73 P3 R76
G1 X45.032 Y61.612 E0.01677
G1 X88.712 Y105.292 E1.93956
G1 X89.246 Y105.292 E0.01677
G1 X45.032 Y61.078 E1.96328
G1 X45.032 Y60.544 E0.01677
G1 X89.780 Y105.292 E1.98699
G1 X90.314 Y105.292 E0.01677
G1 X45.032 Y60.010 E2.01070
G1 X45.032 Y59.476 E0.01677
G1 X90.848 Y105.292 E2.03441
G1 X91.382 Y105.292 E0.01677
G1 X45.032 Y58.942 E2.05813
G1 X45.032 Y58.408 E0.01677
G1 X91.916 Y105.292 E2.08184
G1 X92.450 Y105.292 E0.01677
G1 X45.032 Y57.874 E2.10555
G1 X45.032 Y57.340 E0.01677
G1 X92.984 Y105.292 E2.12927
G1 X93.518 Y105.292 E0.01677
G1 X45.032 Y56.806 E2.15298
G1 X45.032 Y56.272 E0.01677
G1 X94.052 Y105.292 E2.17669
G1 X94.586 Y105.292 E0.01677
G1 X45.032 Y55.738 E2.20040
G1 X45.032 Y55.204 E0.01677
G1 X95.120 Y105.292 E2.22412
G1 X95.654 Y105.292 E0.01677
G1 X45.032 Y54.670 E2.24783
G1 X45.032 Y54.136 E0.01677
G1 X96.188 Y105.292 E2.27154
G1 X96.722 Y105.292 E0.01677
G1 X45.032 Y53.602 E2.29525
G1 X45.032 Y53.068 E0.01677
G1 X97.256 Y105.292 E2.31897
G1 X97.790 Y105.292 E0.01677
G1 X45.032 Y52.534 E2.34268
M73 Q5 S75
M73 P5 R75
G1 X45.032 Y52.000 E0.01677
G1 X98.324 Y105.292 E2.36639
G1 X98.858 Y105.292 E0.01677
G1 X45.032 Y51.466 E2.39011
G1 X45.032 Y50.932 E0.01677
G1 X99.392 Y105.292 E2.41382
G1 X99.926 Y105.292 E0.01677
G1 X45.032 Y50.398 E2.43753
G1 X45.032 Y49.864 E0.01677
G1 X100.460 Y105.292 E2.46124
G1 X100.994 Y105.292 E0.01677
G1 X45.032 Y49.330 E2.48496
G1 X45.032 Y48.796 E0.01677
G1 X101.528 Y105.292 E2.50867
G1 X102.062 Y105.292 E0.01677
G1 X45.032 Y48.262 E2.53238
G1 X45.032 Y47.728 E0.01677
G1 X102.596 Y105.292 E2.55609
G1 X103.130 Y105.292 E0.01677
G1 X45.032 Y47.194 E2.57981
G1 X45.032 Y46.660 E0.01677
G1 X103.665 Y105.292 E2.60352
G1 X104.199 Y105.292 E0.01677
G1 X45.032 Y46.126 E2.62723
G1 X45.032 Y45.592 E0.01677
G1 X104.733 Y105.292 E2.65094
G1 X105.267 Y105.292 E0.01677
G1 X45.032 Y45.058 E2.67466
G1 X45.032 Y45.032 E0.00081
G1 X45.540 Y45.032 E0.01596
G1 X105.801 Y105.292 E2.67580
M73 Q6 S74
M73 P6 R74
G1 X106.335 Y105.292 E0.01677
G1 X46.074 Y45.032 E2.67580
G1 X46.608 Y45.032 E0.01677
G1 X106.869 Y105.292 E2.67580
G1 X107.403 Y105.292 E0.01677
G1 X47.142 Y45.032 E2.67580
G1 X47.676 Y45.032 E0.01677
G1 X107.937 Y105.292 E2.67580
G1 X108.471 Y105.292 E0.01677
G1 X48.210 Y45.032 E2.67580
G1 X48.744 Y45.032 E0.01677
G1 X109.005 Y105.292 E2.67580
G1 X109.539 Y105.292 E0.01677
G1 X49.278 Y45.032 E2.67580
G1 X49.813 Y45.032 E0.01677
G1 X110.073 Y105.292 E2.67580
G1 X110.607 Y105.292 E0.01677
G1 X50.347 Y45.032 E2.67580
G1 X50.881 Y45.032 E0.01677
G1 X111.141 Y105.292 E2.67580
G1 X111.675 Y105.292 E0.01677
G1 X51.415 Y45.032 E2.67580
G1 X51.949 Y45.032 E0.01677
G1 X112.209 Y105.292 E2.67580
G1 X112.743 Y105.292 E0.01677
G1 X52.483 Y45.032 E2.67580
G1 X53.017 Y45.032 E0.01677
G1 X113.277 Y105.292 E2.67580
M73 Q7 S73
M73 P7 R73
G1 X113.811 Y105.292 E0.01677
G1 X53.551 Y45.032 E2.67580
G1 X54.085 Y45.032 E0.01677
G1 X114.345 Y105.292 E2.67580
G1 X114.879 Y105.292 E0.01677
G1 X54.619 Y45.032 E2.67580
G1 X55.153 Y45.032 E0.01677
G1 X115.413 Y105.292 E2.67580
G1 X115.947 Y105.292 E0.01677
G1 X55.687 Y45.032 E2.67580
G1 X56.221 Y45.032 E0.01677
G1 X116.481 Y105.292 E2.67580
G1 X117.015 Y105.292 E0.01677
G1 X56.755 Y45.032 E2.67580
G1 X57.289 Y45.032 E0.01677
G1 X117.549 Y105.292 E2.67580
G1 X118.083 Y105.292 E0.01677
G1 X57.823 Y45.032 E2.67580
G1 X58.357 Y45.032 E0.01677
G1 X118.617 Y105.292 E2.67580
G1 X119.151 Y105.292 E0.01677
G1 X58.891 Y45.032 E2.67580
G1 X59.425 Y45.032 E0.01677
G1 X119.685 Y105.292 E2.67580
G1 X120.219 Y105.292 E0.01677
G1 X59.959 Y45.032 E2.67580
G1 X60.493 Y45.032 E0.01677
G1 X120.753 Y105.292 E2.67580
M73 Q9 S72
M73 P9 R72
G1 X121.287 Y105.292 E0.01677
G1 X61.027 Y45.032 E2.67580
G1 X61.561 Y45.032 E0.01677
G1 X121.821 Y105.292 E2.67580
G1 X122.355 Y105.292 E0.01677
G1 X62.095 Y45.032 E2.67580
G1 X62.629 Y45.032 E0.01677
G1 X122.889 Y105.292 E2.67580
G1 X123.423 Y105.292 E0.01677
G1 X63.163 Y45.032 E2.67580
G1 X63.697 Y45.032 E0.01677
G1 X123.957 Y105.292 E2.67580
G1 X124.491 Y105.292 E0.01677
G1 X64.231 Y45.032 E2.67580
G1 X64.765 Y45.032 E0.01677
G1 X125.025 Y105.292 E2.67580
G1 X125.559 Y105.292 E0.01677
G1 X65.299 Y45.032 E2.67580
G1 X65.833 Y45.032 E0.01677
G1 X126.093 Y105.292 E2.67580
G1 X126.627 Y105.292 E0.01677
G1 X66.367 Y45.032 E2.67580
G1 X66.901 Y45.032 E0.01677
G1 X127.161 Y105.292 E2.67580
G1 X127.695 Y105.292 E0.01677
G1 X67.435 Y45.032 E2.67580
G1 X67.969 Y45.032 E0.01677
G1 X128.229 Y105.292 E2.67580
M73 Q10 S71
M73 P10 R71
G1 X128.764 Y105.292 E0.01677
G1 X68.503 Y45.032 E2.67580
G1 X69.037 Y45.032 E0.01677
G1 X129.298 Y105.292 E2.67580
G1 X129.832 Y105.292 E0.01677
G1 X69.571 Y45.032 E2.67580
G1 X70.105 Y45.032 E0.01677
G1 X130.366 Y105.292 E2.67580
G1 X130.900 Y105.292 E0.01677
G1 X70.639 Y45.032 E2.67580
G1 X71.173 Y45.032 E0.01677
G1 X131.434 Y105.292 E2.67580
G1 X131.968 Y105.292 E0.01677
G1 X71.707 Y45.032 E2.67580
G1 X72.241 Y45.032 E0.01677
G1 X132.502 Y105.292 E2.67580
G1 X133.036 Y105.292 E0.01677
G1 X72.775 Y45.032 E2.67580
G1 X73.309 Y45.032 E0.01677
G1 X133.570 Y105.292 E2.67580
G1 X134.104 Y105.292 E0.01677
G1 X73.843 Y45.032 E2.67580
G1 X74.377 Y45.032 E0.01677
G1 X134.638 Y105.292 E2.67580
G1 X135.172 Y105.292 E0.01677
G1 X74.911 Y45.032 E2.67580
G1 X75.446 Y45.032 E0.01677
G1 X135.706 Y105.292 E2.67580
M73 Q11 S70
M73 P11 R70
G1 X136.240 Y105.292 E0.01677
G1 X75.980 Y45.032 E2.67580
G1 X76.514 Y45.032 E0.01677
G1 X136.774 Y105.292 E2.67580
G1 X137.308 Y105.292 E0.01677
G1 X77.048 Y45.032 E2.67580
G1 X77.582 Y45.032 E0.01677
G1 X137.842 Y105.292 E2.67580
G1 X138.376 Y105.292 E0.01677
G1 X78.116 Y45.032 E2.67580
G1 X78.650 Y45.032 E0.01677
G1 X138.910 Y105.292 E2.67580
G1 X139.444 Y105.292 E0.01677
G1 X79.184 Y45.032 E2.67580
G1 X79.718 Y45.032 E0.01677
G1 X139.978 Y105.292 E2.67580
G1 X140.512 Y105.292 E0.01677
G1 X80.252 Y45.032 E2.67580
G1 X80.786 Y45.032 E0.01677
G1 X141.046 Y105.292 E2.67580
G1 X141.580 Y105.292 E0.01677
G1 X81.320 Y45.032 E2.67580
G1 X81.854 Y45.032 E0.01677
G1 X142.114 Y105.292 E2.67580
G1 X142.648 Y105.292 E0.01677
G1 X82.388 Y45.032 E2.67580
G1 X82.922 Y45.032 E0.01677
G1 X143.182 Y105.292 E2.67580
M73 Q12 S69
M73 P12 R69
G1 X143.716 Y105.292 E0.01677
G1 X83.456 Y45.032 E2.67580
G1 X83.990 Y45.032 E0.01677
G1 X144.250 Y105.292 E2.67580
G1 X144.784 Y105.292 E0.01677
G1 X84.524 Y45.032 E2.67580
G1 X85.058 Y45.032 E0.01677
G1 X145.292 Y105.266 E2.67465
G1 X145.292 Y104.732 E0.01677
G1 X85.592 Y45.032 E2.65094
G1 X86.126 Y45.032 E0.01677
G1 X145.292 Y104.198 E2.62723
G1 X145.292 Y103.664 E0.01677
G1 X86.660 Y45.032 E2.60351
G1 X87.194 Y45.032 E0.01677
G1 X145.292 Y103.130 E2.57980
G1 X145.292 Y102.596 E0.01677
G1 X87.728 Y45.032 E2.55609
G1 X88.262 Y45.032 E0.01677
G1 X145.292 Y102.062 E2.53237
G1 X145.292 Y101.528 E0.01677
G1 X88.796 Y45.032 E2.50866
G1 X89.330 Y45.032 E0.01677
G1 X145.292 Y100.994 E2.48495
G1 X145.292 Y100.460 E0.01677
G1 X89.864 Y45.032 E2.46124
G1 X90.398 Y45.032 E0.01677
G1 X145.292 Y99.926 E2.43752
G1 X145.292 Y99.392 E0.01677
G1 X90.932 Y45.032 E2.41381
M73 Q14 S68
M73 P14 R68
G1 X91.466 Y45.032 E0.01677
G1 X145.292 Y98.858 E2.39010
G1 X145.292 Y98.324 E0.01677
G1 X92.000 Y45.032 E2.36639
G1 X92.534 Y45.032 E0.01677
G1 X145.292 Y97.790 E2.34267
G1 X145.292 Y97.256 E0.01677
G1 X93.068 Y45.032 E2.31896
G1 X93.602 Y45.032 E0.01677
G1 X145.292 Y96.722 E2.29525
G1 X145.292 Y96.188 E0.01677
G1 X94.136 Y45.032 E2.27153
G1 X94.670 Y45.032 E0.01677
G1 X145.292 Y95.654 E2.24782
G1 X145.292 Y95.120 E0.01677
G1 X95.204 Y45.032 E2.22411
G1 X95.738 Y45.032 E0.01677
G1 X145.292 Y94.586 E2.20040
G1 X145.292 Y94.052 E0.01677
G1 X96.272 Y45.032 E2.17668
G1 X96.806 Y45.032 E0.01677
G1 X145.292 Y93.518 E2.15297
G1 X145.292 Y92.984 E0.01677
G1 X97.340 Y45.032 E2.12926
G1 X97.874 Y45.032 E0.01677
G1 X145.292 Y92.450 E2.10555
G1 X145.292 Y91.916 E0.01677
G1 X98.408 Y45.032 E2.08183
G1 X98.942 Y45.032 E0.01677
G1 X145.292 Y91.382 E2.05812
G1 X145.292 Y90.848 E0.01677
G1 X99.476 Y45.032 E2.03441
G1 X100.010 Y45.032 E0.01677
G1 X145.292 Y90.314 E2.01070
M73 Q15 S67
M73 P15 R67
G1 X145.292 Y89.780 E0.01677
G1 X100.545 Y45.032 E1.98698
G1 X101.079 Y45.032 E0.01677
G1 X145.292 Y89.246 E1.96327
G1 X145.292 Y88.712 E0.01677
G1 X101.613 Y45.032 E1.93956
G1 X102.147 Y45.032 E0.01677
G1 X145.292 Y88.178 E1.91584
G1 X145.292 Y87.644 E0.01677
G1 X102.681 Y45.032 E1.89213
G1 X103.215 Y45.032 E0.01677
G1 X145.292 Y87.110 E1.86842
G1 X145.292 Y86.576 E0.01677
G1 X103.749 Y45.032 E1.84471
G1 X104.283 Y45.032 E0.01677
G1 X145.292 Y86.042 E1.82099
G1 X145.292 Y85.508 E0.01677
