; generated by PrusaSlicer 2.0.0+win64 on 2024-11-20 at 08:53:12

; 

; external perimeters extrusion width = 0.45mm
; perimeters extrusion width = 0.45mm
; infill extrusion width = 0.45mm
; solid infill extrusion width = 0.45mm
; top infill extrusion width = 0.40mm
; support material extrusion width = 0.35mm
; first layer extrusion width = 0.42mm

M73 P0 R448
M73 Q0 S451
M201 X1000 Y1000 Z1000 E5000 ; sets maximum accelerations, mm/sec^2
M203 X200 Y200 Z12 E120 ; sets maximum feedrates, mm/sec
M204 P1250 R1250 T1250 ; sets acceleration (P, T) and retract acceleration (R), mm/sec^2
M205 X8.00 Y8.00 Z0.40 E1.50 ; sets the jerk limits, mm/sec
M205 S0 T0 ; sets the minimum extruding and travel feed rate, mm/sec
M107
M115 U3.7.1 ; tell printer latest fw version
G90 ; use absolute coordinates
M83 ; extruder relative mode
M104 S215 ; set extruder temp
M140 S60 ; set bed temp
M190 S60 ; wait for bed temp
M109 S215 ; wait for extruder temp
G28 W ; home all without mesh bed level
G80 ; mesh bed leveling
G1 Y-3.0 F1000.0 ; go outside print area
G92 E0.0
G1 X60.0 E9.0 F1000.0 ; intro line
M73 Q0 S451
M73 P0 R447
G1 X100.0 E12.5 F1000.0 ; intro line
G92 E0.0
M221 S95
M900 K30 ; Filament gcode
G21 ; set units to millimeters
G90 ; use absolute coordinates
M83 ; use relative distances for extrusion
;BEFORE_LAYER_CHANGE
G92 E0.0
;0.2


G1 E-0.80000 F2100.00000
G1 Z0.600 F10800.000
;AFTER_LAYER_CHANGE
;0.2
G1 X30.874 Y167.235
G1 Z0.200
G1 E0.80000 F2100.00000
M204 S1000
G1 F1200
G1 X29.925 Y166.176 E0.04460
G1 X29.561 Y165.537 E0.02305
G1 X29.294 Y164.858 E0.02288
G1 X29.127 Y164.148 E0.02288
G1 X29.063 Y163.415 E0.02305
G1 X29.066 Y105.152 E1.82682
G1 X31.618 Y90.440 E0.46816
G1 X32.024 Y88.679 E0.05665
G1 X32.951 Y85.677 E0.09853
G1 X33.639 Y83.926 E0.05898
G1 X35.043 Y81.021 E0.10115
G1 X35.950 Y79.460 E0.05663
G1 X37.770 Y76.799 E0.10106
G1 X39.836 Y74.329 E0.10098
G1 X41.096 Y73.031 E0.05671
G1 X43.512 Y70.893 E0.10115
G1 X45.029 Y69.744 E0.05968
G1 X47.645 Y68.054 E0.09766
G1 X49.237 Y67.183 E0.05688
G1 X52.166 Y65.857 E0.10081
G1 X53.968 Y65.202 E0.06012
G1 X57.072 Y64.334 E0.10106
G1 X60.242 Y63.770 E0.10098
G1 X62.142 Y63.579 E0.05985
G1 X65.261 Y63.501 E0.09784
G1 X68.833 Y63.768 E0.11232
G1 X71.901 Y64.308 E0.09766
G1 X73.628 Y64.743 E0.05583
G1 X76.927 Y65.858 E0.10918
G1 X79.756 Y67.135 E0.09731
G1 X81.244 Y67.938 E0.05304
G1 X134.856 Y101.028 E1.97536
G1 X135.697 Y101.687 E0.03349
G1 X136.382 Y102.507 E0.03349
G1 X136.743 Y103.140 E0.02288
G1 X137.013 Y103.824 E0.02305
G1 X137.180 Y104.540 E0.02305
G1 X137.243 Y105.267 E0.02288
G1 X137.243 Y163.453 E1.82438
G1 X137.071 Y164.658 E0.03818
G1 X136.617 Y165.789 E0.03818
G1 X135.908 Y166.779 E0.03818
G1 X134.984 Y167.572 E0.03818
G1 X134.106 Y168.042 E0.03123
G1 X115.252 Y175.780 E0.63900
G1 X114.574 Y176.001 E0.02235
G1 X113.867 Y176.125 E0.02253
G1 X52.186 Y176.152 E1.93395
G1 X51.245 Y176.052 E0.02967
G1 X50.339 Y175.779 E0.02967
G1 X32.074 Y167.988 E0.62261
G1 X30.925 Y167.267 E0.04254
G1 F8640
G1 X29.925 Y166.176 E-0.34175
G1 X29.561 Y165.537 E-0.16975
G1 X29.294 Y164.858 E-0.16846
G1 X29.215 Y164.521 E-0.08004
G1 E-0.04000 F2100.00000
G1 Z0.800 F10800.000
G1 X96.127 Y100.630
G1 Z0.200
G1 E0.80000 F2100.00000
G1 F1200
G1 X132.640 Y100.631 E1.14482
G1 X133.588 Y100.815 E0.03029
G1 X134.496 Y101.206 E0.03101
G1 X135.825 Y102.357 E0.05512
G1 X136.530 Y103.503 E0.04217
G1 X136.867 Y104.830 E0.04293
G1 X136.867 Y163.851 E1.85056
G1 X136.568 Y165.074 E0.03947
G1 X136.160 Y165.890 E0.02862
G1 X135.261 Y166.902 E0.04242
G1 X134.623 Y167.406 E0.02550
G1 X132.700 Y168.055 E0.06363
G1 X118.231 Y168.055 E0.45368
G1 X118.213 Y171.783 E0.11690
G1 X117.806 Y173.122 E0.04387
G1 X117.104 Y174.160 E0.03928
G1 X116.186 Y174.991 E0.03883
G1 X115.159 Y175.522 E0.03625
G1 X114.025 Y175.770 E0.03640
G1 X113.194 Y175.767 E0.02606
G1 X112.933 Y175.795 E0.00823
G1 X103.943 Y175.795 E0.28188
G1 X103.678 Y175.766 E0.00834
G1 X102.857 Y175.770 E0.02577
G1 X102.420 Y175.696 E0.01389
G1 X101.973 Y175.768 E0.01418
G1 X101.134 Y175.766 E0.02630
G1 X100.866 Y175.795 E0.00845
G1 X52.660 Y175.795 E1.51147
G1 X52.376 Y175.764 E0.00897
G1 X51.170 Y175.717 E0.03784
G1 X49.914 Y175.297 E0.04152
G1 X49.024 Y174.688 E0.03383
G1 X48.236 Y173.859 E0.03583
G1 X47.658 Y172.827 E0.03710
G1 X47.371 Y171.675 E0.03721
G1 X47.353 Y168.055 E0.11353
G1 X33.551 Y168.043 E0.43274
G1 X32.420 Y167.756 E0.03658
G1 X31.604 Y167.348 E0.02861
G1 X30.593 Y166.449 E0.04242
G1 X30.089 Y165.811 E0.02550
G1 X29.440 Y163.888 E0.06363
G1 X29.440 Y104.832 E1.85167
G1 X29.738 Y103.609 E0.03945
G1 X30.174 Y102.752 E0.03014
G1 X31.045 Y101.781 E0.04091
G1 X31.742 Y101.245 E0.02758
G1 X33.055 Y100.790 E0.04357
G1 X32.011 Y99.580 E0.05011
G1 X31.507 Y98.488 E0.03771
G1 X31.328 Y97.488 E0.03184
G1 X31.373 Y95.424 E0.06474
G1 X31.498 Y93.760 E0.05231
G1 X31.703 Y92.128 E0.05160
G1 X31.989 Y90.507 E0.05159
G1 X32.357 Y88.892 E0.05194
G1 X32.803 Y87.306 E0.05167
G1 X33.330 Y85.735 E0.05194
G1 X33.949 Y84.158 E0.05313
G1 X34.628 Y82.657 E0.05164
G1 X35.384 Y81.184 E0.05192
G1 X36.202 Y79.767 E0.05132
G1 X37.095 Y78.384 E0.05161
G1 X38.078 Y77.016 E0.05282
G1 X39.118 Y75.714 E0.05224
G1 X40.215 Y74.473 E0.05193
G1 X41.372 Y73.288 E0.05193
G1 X42.580 Y72.169 E0.05163
G1 X43.842 Y71.111 E0.05164
G1 X45.185 Y70.095 E0.05282
G1 X46.547 Y69.168 E0.05163
G1 X47.953 Y68.310 E0.05163
G1 X49.433 Y67.506 E0.05282
G1 X50.935 Y66.786 E0.05222
G1 X52.462 Y66.145 E0.05193
G1 X54.019 Y65.581 E0.05192
G1 X55.583 Y65.101 E0.05132
G1 X57.169 Y64.698 E0.05128
G1 X58.763 Y64.376 E0.05100
G1 X60.381 Y64.131 E0.05132
G1 X62.067 Y63.962 E0.05313
G1 X63.721 Y63.879 E0.05194
G1 X65.378 Y63.879 E0.05194
G1 X67.032 Y63.962 E0.05193
G1 X68.680 Y64.127 E0.05192
G1 X70.317 Y64.374 E0.05193
G1 X71.950 Y64.705 E0.05222
G1 X73.554 Y65.114 E0.05192
G1 X75.137 Y65.603 E0.05192
G1 X76.693 Y66.170 E0.05193
G1 X78.227 Y66.818 E0.05221
G1 X79.701 Y67.529 E0.05133
G1 X81.147 Y68.316 E0.05163
G1 X82.561 Y69.180 E0.05192
G1 X83.929 Y70.112 E0.05192
G1 X85.257 Y71.118 E0.05222
G1 X86.525 Y72.183 E0.05193
G1 X87.739 Y73.309 E0.05192
G1 X88.895 Y74.495 E0.05192
G1 X89.991 Y75.737 E0.05192
G1 X91.023 Y77.032 E0.05194
G1 X91.996 Y78.385 E0.05224
G1 X92.899 Y79.785 E0.05223
G1 X93.725 Y81.220 E0.05192
G1 X94.480 Y82.694 E0.05193
G1 X95.164 Y84.213 E0.05222
G1 X95.757 Y85.728 E0.05104
G1 X96.279 Y87.280 E0.05132
G1 X96.730 Y88.882 E0.05220
G1 X97.097 Y90.487 E0.05162
G1 X97.384 Y92.109 E0.05164
G1 X97.591 Y93.752 E0.05193
G1 X97.718 Y95.444 E0.05321
G1 X97.760 Y97.523 E0.06520
G1 X97.443 Y98.872 E0.04346
G1 X96.800 Y99.974 E0.03998
G1 X96.170 Y100.588 E0.02759
G1 F8640
G1 X99.462 Y100.592 E-0.76000
G1 E-0.04000 F2100.00000
G1 Z0.800 F10800.000
G1 X95.169 Y101.007
G1 Z0.200
G1 E0.80000 F2100.00000
G1 F1200
G1 X132.621 Y101.008 E1.17428
G1 X133.494 Y101.181 E0.02791
G1 X134.319 Y101.540 E0.02822
G1 X135.521 Y102.581 E0.04984
G1 X136.173 Y103.626 E0.03861
G1 X136.490 Y104.854 E0.03978
G1 X136.490 Y163.827 E1.84907
G1 X136.208 Y164.961 E0.03664
G1 X135.835 Y165.697 E0.02585
G1 X134.992 Y166.637 E0.03960
G1 X134.416 Y167.089 E0.02295
G1 X132.669 Y167.678 E0.05778
G1 X117.855 Y167.678 E0.46449
G1 X117.836 Y171.754 E0.12781
G1 X117.477 Y172.936 E0.03872
G1 X116.833 Y173.896 E0.03625
G1 X115.951 Y174.694 E0.03730
G1 X115.010 Y175.175 E0.03315
G1 X114.006 Y175.393 E0.03220
G1 X113.173 Y175.389 E0.02612
G1 X112.922 Y175.417 E0.00793
G1 X103.954 Y175.417 E0.28119
G1 X103.699 Y175.389 E0.00804
G1 X102.872 Y175.392 E0.02592
G1 X102.421 Y175.314 E0.01435
G1 X101.958 Y175.391 E0.01474
G1 X101.113 Y175.389 E0.02648
G1 X100.856 Y175.417 E0.00813
G1 X52.671 Y175.417 E1.51079
G1 X52.403 Y175.387 E0.00847
G1 X51.263 Y175.351 E0.03575
G1 X50.059 Y174.948 E0.03980
G1 X49.282 Y174.412 E0.02958
G1 X48.553 Y173.653 E0.03300
G1 X48.000 Y172.665 E0.03551
G1 X47.742 Y171.609 E0.03411
G1 X47.729 Y167.678 E0.12325
G1 X33.621 Y167.672 E0.44233
G1 X32.533 Y167.396 E0.03518
G1 X31.798 Y167.023 E0.02587
G1 X30.857 Y166.180 E0.03960
G1 X30.405 Y165.604 E0.02295
G1 X29.817 Y163.857 E0.05778
G1 X29.817 Y104.855 E1.84998
G1 X30.099 Y103.721 E0.03664
G1 X30.472 Y102.986 E0.02585
G1 X31.314 Y102.046 E0.03956
G1 X31.945 Y101.564 E0.02492
G1 X33.960 Y100.886 E0.06664
G1 X33.205 Y100.385 E0.02840
G1 X32.341 Y99.396 E0.04119
G1 X31.874 Y98.395 E0.03462
G1 X31.705 Y97.477 E0.02926
G1 X31.750 Y95.438 E0.06397
G1 X31.873 Y93.803 E0.05140
M73 Q0 S450
G1 X32.075 Y92.189 E0.05101
G1 X32.358 Y90.586 E0.05101
G1 X32.721 Y88.990 E0.05135
G1 X33.165 Y87.412 E0.05137
G1 X33.686 Y85.860 E0.05135
G1 X34.295 Y84.309 E0.05224
G1 X34.969 Y82.817 E0.05135
G1 X35.717 Y81.360 E0.05133
G1 X36.527 Y79.959 E0.05073
M73 P0 R446
G1 X37.409 Y78.592 E0.05102
G1 X38.376 Y77.248 E0.05193
G1 X39.404 Y75.960 E0.05164
G1 X40.488 Y74.733 E0.05134
G1 X41.632 Y73.562 E0.05134
G1 X42.826 Y72.455 E0.05104
G1 X44.081 Y71.403 E0.05134
G1 X45.401 Y70.404 E0.05193
G1 X46.755 Y69.483 E0.05134
G1 X48.145 Y68.635 E0.05104
G1 X49.600 Y67.844 E0.05193
G1 X51.085 Y67.132 E0.05163
G1 X52.594 Y66.498 E0.05134
G1 X54.134 Y65.940 E0.05133
G1 X55.689 Y65.463 E0.05102
G1 X57.257 Y65.065 E0.05070
G1 X58.824 Y64.748 E0.05013
G1 X60.433 Y64.505 E0.05103
G1 X62.090 Y64.338 E0.05224
G1 X63.726 Y64.256 E0.05135
G1 X65.364 Y64.256 E0.05135
G1 X66.999 Y64.338 E0.05134
G1 X68.628 Y64.501 E0.05134
G1 X70.247 Y64.745 E0.05134
G1 X71.861 Y65.071 E0.05163
G1 X73.448 Y65.476 E0.05133
G1 X75.012 Y65.959 E0.05134
G1 X76.550 Y66.519 E0.05134
G1 X78.067 Y67.160 E0.05162
G1 X79.533 Y67.866 E0.05104
G1 X80.963 Y68.645 E0.05104
G1 X82.360 Y69.499 E0.05133
G1 X83.713 Y70.421 E0.05133
G1 X85.025 Y71.416 E0.05163
G1 X86.279 Y72.468 E0.05134
G1 X87.479 Y73.582 E0.05133
G1 X88.622 Y74.755 E0.05133
G1 X89.705 Y75.983 E0.05134
G1 X90.726 Y77.263 E0.05135
G1 X91.687 Y78.601 E0.05165
G1 X92.579 Y79.985 E0.05164
G1 X93.392 Y81.396 E0.05104
G1 X94.138 Y82.853 E0.05134
G1 X94.814 Y84.355 E0.05163
G1 X95.405 Y85.861 E0.05075
G1 X95.920 Y87.395 E0.05074
G1 X96.366 Y88.980 E0.05161
G1 X96.728 Y90.567 E0.05104
G1 X97.012 Y92.170 E0.05105
G1 X97.216 Y93.794 E0.05134
G1 X97.341 Y95.457 E0.05228
G1 X97.383 Y97.507 E0.06430
G1 X97.102 Y98.707 E0.03862
G1 X96.489 Y99.760 E0.03820
G1 X95.212 Y100.966 E0.05507
G1 F8640
G1 X98.504 Y100.970 E-0.76000
G1 E-0.04000 F2100.00000
G1 Z0.800 F10800.000
G1 X93.030 Y101.011
G1 Z0.200
G1 E0.80000 F2100.00000
G1 F1200
G1 X93.034 Y101.384 E0.01169
G1 X132.602 Y101.386 E1.24061
G1 X133.399 Y101.546 E0.02550
G1 X134.141 Y101.874 E0.02543
G1 X135.217 Y102.807 E0.04466
G1 X135.816 Y103.751 E0.03505
G1 X136.113 Y104.879 E0.03657
G1 X136.113 Y163.804 E1.84755
G1 X135.848 Y164.847 E0.03376
G1 X135.511 Y165.502 E0.02308
G1 X134.724 Y166.372 E0.03679
G1 X134.210 Y166.772 E0.02043
G1 X132.639 Y167.301 E0.05197
G1 X117.480 Y167.301 E0.47530
G1 X117.459 Y171.725 E0.13872
G1 X117.148 Y172.750 E0.03360
G1 X116.563 Y173.632 E0.03319
G1 X115.718 Y174.397 E0.03573
G1 X114.863 Y174.827 E0.02999
G1 X113.950 Y175.020 E0.02928
G1 X113.153 Y175.012 E0.02496
G1 X112.911 Y175.040 E0.00766
G1 X103.965 Y175.040 E0.28048
G1 X103.720 Y175.012 E0.00773
G1 X102.889 Y175.015 E0.02607
G1 X102.423 Y174.930 E0.01483
G1 X101.942 Y175.013 E0.01533
G1 X101.091 Y175.011 E0.02666
G1 X100.844 Y175.040 E0.00781
G1 X52.682 Y175.040 E1.51007
G1 X52.431 Y175.011 E0.00794
G1 X51.304 Y174.975 E0.03536
G1 X50.207 Y174.600 E0.03634
G1 X49.540 Y174.137 E0.02546
G1 X48.870 Y173.447 E0.03014
G1 X48.342 Y172.505 E0.03388
G1 X48.114 Y171.544 E0.03097
G1 X48.105 Y167.301 E0.13304
G1 X33.691 Y167.301 E0.45195
G1 X32.647 Y167.036 E0.03376
G1 X31.993 Y166.699 E0.02308
G1 X31.123 Y165.912 E0.03679
G1 X30.723 Y165.398 E0.02043
G1 X30.194 Y163.827 E0.05197
G1 X30.194 Y104.879 E1.84827
G1 X30.459 Y103.835 E0.03376
G1 X30.795 Y103.181 E0.02308
G1 X31.583 Y102.311 E0.03679
G1 X32.097 Y101.911 E0.02043
G1 X33.668 Y101.382 E0.05197
G1 X35.552 Y101.382 E0.05908
G1 X35.596 Y101.055 E0.01034
G1 X34.435 Y100.738 E0.03772
G1 X33.469 Y100.115 E0.03605
G1 X32.671 Y99.211 E0.03780
G1 X32.226 Y98.258 E0.03299
G1 X32.082 Y97.467 E0.02521
G1 X32.126 Y95.461 E0.06291
G1 X32.248 Y93.836 E0.05110
G1 X32.448 Y92.249 E0.05013
G1 X32.726 Y90.666 E0.05042
G1 X33.086 Y89.087 E0.05076
G1 X33.526 Y87.519 E0.05107
G1 X34.042 Y85.984 E0.05076
G1 X34.640 Y84.460 E0.05135
G1 X35.307 Y82.985 E0.05075
G1 X36.050 Y81.537 E0.05103
G1 X36.851 Y80.152 E0.05015
G1 X37.724 Y78.801 E0.05044
G1 X38.674 Y77.479 E0.05104
G1 X39.689 Y76.206 E0.05105
G1 X40.761 Y74.993 E0.05075
G1 X41.892 Y73.835 E0.05075
G1 X43.079 Y72.735 E0.05075
G1 X44.319 Y71.695 E0.05075
G1 X45.618 Y70.713 E0.05105
G1 X46.956 Y69.802 E0.05075
G1 X48.337 Y68.959 E0.05075
G1 X49.768 Y68.182 E0.05104
G1 X51.235 Y67.477 E0.05104
G1 X52.727 Y66.851 E0.05075
G1 X54.249 Y66.299 E0.05075
G1 X55.787 Y65.827 E0.05044
G1 X57.336 Y65.434 E0.05012
G1 X58.885 Y65.120 E0.04954
G1 X60.485 Y64.878 E0.05073
G1 X62.114 Y64.714 E0.05134
G1 X63.740 Y64.633 E0.05105
G1 X65.359 Y64.633 E0.05075
G1 X66.975 Y64.714 E0.05075
G1 X68.586 Y64.876 E0.05075
G1 X70.186 Y65.117 E0.05075
G1 X71.782 Y65.440 E0.05104
G1 X73.350 Y65.840 E0.05074
G1 X74.896 Y66.318 E0.05075
G1 X76.417 Y66.872 E0.05075
G1 X77.908 Y67.501 E0.05074
G1 X79.357 Y68.200 E0.05045
G1 X80.778 Y68.974 E0.05075
G1 X82.159 Y69.818 E0.05074
G1 X83.496 Y70.730 E0.05074
G1 X84.794 Y71.713 E0.05104
G1 X86.033 Y72.754 E0.05075
G1 X87.219 Y73.855 E0.05075
G1 X88.342 Y75.008 E0.05045
G1 X89.413 Y76.221 E0.05075
G1 X90.422 Y77.487 E0.05075
G1 X91.372 Y78.809 E0.05106
G1 X92.255 Y80.178 E0.05105
G1 X93.058 Y81.572 E0.05045
G1 X93.796 Y83.012 E0.05075
G1 X94.465 Y84.497 E0.05104
G1 X95.049 Y85.986 E0.05016
G1 X95.561 Y87.511 E0.05044
G1 X95.999 Y89.068 E0.05073
G1 X96.358 Y90.637 E0.05045
G1 X96.640 Y92.231 E0.05075
G1 X96.842 Y93.837 E0.05075
G1 X96.964 Y95.470 E0.05135
G1 X97.005 Y97.492 E0.06341
G1 X96.762 Y98.542 E0.03379
G1 X96.177 Y99.545 E0.03642
G1 X95.244 Y100.417 E0.04004
G1 X94.633 Y100.747 E0.02177
G1 X93.834 Y100.993 E0.02620
G1 X93.090 Y101.010 E0.02335
G1 X93.750 Y100.625 F10800.000
G1 F1200
G1 X89.623 Y100.665 E0.12941
G1 X88.678 Y100.426 E0.03057
G1 X88.023 Y100.074 E0.02333
G1 X87.156 Y99.242 E0.03767
G1 X86.741 Y98.546 E0.02542
G1 X86.499 Y97.754 E0.02595
G1 X86.434 Y95.991 E0.05531
G1 X86.353 Y94.900 E0.03430
G1 X86.217 Y93.816 E0.03426
G1 X86.027 Y92.740 E0.03426
G1 X85.784 Y91.674 E0.03426
G1 X85.488 Y90.622 E0.03426
G1 X85.140 Y89.586 E0.03426
G1 X84.741 Y88.569 E0.03426
G1 X84.291 Y87.573 E0.03426
G1 X83.793 Y86.601 E0.03426
G1 X83.246 Y85.654 E0.03426
G1 X82.653 Y84.736 E0.03426
G1 X82.015 Y83.849 E0.03426
G1 X81.334 Y82.995 E0.03426
G1 X80.611 Y82.175 E0.03426
G1 X79.925 Y81.472 E0.03079
G1 X79.042 Y80.645 E0.03795
G1 X78.210 Y79.947 E0.03405
G1 X77.339 Y79.287 E0.03426
G1 X76.527 Y78.734 E0.03079
G1 X75.497 Y78.099 E0.03795
G1 X74.544 Y77.579 E0.03405
G1 X73.559 Y77.105 E0.03426
G1 X72.552 Y76.681 E0.03426
G1 X71.629 Y76.345 E0.03079
G1 X70.474 Y75.983 E0.03795
G1 X69.422 Y75.715 E0.03405
G1 X68.351 Y75.499 E0.03426
G1 X67.270 Y75.336 E0.03426
G1 X66.183 Y75.227 E0.03426
G1 X65.091 Y75.173 E0.03426
G1 X63.999 Y75.173 E0.03426
G1 X62.907 Y75.227 E0.03426
G1 X61.820 Y75.336 E0.03426
G1 X60.849 Y75.482 E0.03079
G1 X59.661 Y75.717 E0.03795
G1 X58.609 Y75.985 E0.03405
G1 X57.565 Y76.307 E0.03426
G1 X56.538 Y76.681 E0.03426
G1 X55.531 Y77.105 E0.03426
G1 X54.546 Y77.579 E0.03426
G1 X53.684 Y78.049 E0.03079
G1 X52.648 Y78.676 E0.03795
G1 X51.751 Y79.287 E0.03405
G1 X50.880 Y79.947 E0.03426
G1 X50.043 Y80.650 E0.03426
G1 X49.242 Y81.393 E0.03426
G1 X48.479 Y82.175 E0.03426
G1 X47.756 Y82.995 E0.03426
G1 X47.074 Y83.849 E0.03426
G1 X46.437 Y84.736 E0.03426
G1 X45.844 Y85.654 E0.03426
G1 X45.297 Y86.601 E0.03426
G1 X44.799 Y87.573 E0.03426
G1 X44.349 Y88.569 E0.03426
G1 X43.950 Y89.586 E0.03426
G1 X43.602 Y90.622 E0.03426
G1 X43.306 Y91.674 E0.03426
G1 X43.063 Y92.740 E0.03426
G1 X42.873 Y93.816 E0.03426
G1 X42.737 Y94.900 E0.03426
G1 X42.655 Y95.991 E0.03430
G1 X42.590 Y97.756 E0.05536
G1 X42.345 Y98.554 E0.02620
G1 X41.992 Y99.164 E0.02209
