; generated by PrusaSlicer 2.0.0+win64 on 2024-11-16 at 22:09:42

; 

; external perimeters extrusion width = 0.45mm
; perimeters extrusion width = 0.45mm
; infill extrusion width = 0.45mm
; solid infill extrusion width = 0.45mm
; top infill extrusion width = 0.40mm
; support material extrusion width = 0.35mm
; first layer extrusion width = 0.42mm

M73 P0 R334
M73 Q0 S335
M201 X1000 Y1000 Z1000 E5000 ; sets maximum accelerations, mm/sec^2
M203 X200 Y200 Z12 E120 ; sets maximum feedrates, mm/sec
M204 P1250 R1250 T1250 ; sets acceleration (P, T) and retract acceleration (R), mm/sec^2
M205 X8.00 Y8.00 Z0.40 E1.50 ; sets the jerk limits, mm/sec
M205 S0 T0 ; sets the minimum extruding and travel feed rate, mm/sec
M107
M115 U3.7.1 ; tell printer latest fw version
G90 ; use absolute coordinates
M83 ; extruder relative mode
M104 S215 ; set extruder temp
M140 S60 ; set bed temp
M190 S60 ; wait for bed temp
M109 S215 ; wait for extruder temp
G28 W ; home all without mesh bed level
G80 ; mesh bed leveling
G1 Y-3.0 F1000.0 ; go outside print area
G92 E0.0
G1 X60.0 E9.0 F1000.0 ; intro line
M73 Q0 S335
M73 P0 R333
G1 X100.0 E12.5 F1000.0 ; intro line
G92 E0.0
M221 S95
M900 K30 ; Filament gcode
G21 ; set units to millimeters
G90 ; use absolute coordinates
M83 ; use relative distances for extrusion
;BEFORE_LAYER_CHANGE
G92 E0.0
;0.2


G1 E-0.80000 F2100.00000
G1 Z0.600 F10800.000
;AFTER_LAYER_CHANGE
;0.2
G1 X74.770 Y135.810
G1 Z0.200
G1 E0.80000 F2100.00000
M204 S1000
G1 F1200
G1 X74.136 Y135.146 E0.02878
G1 X73.896 Y134.603 E0.01862
G1 X73.811 Y134.011 E0.01873
G1 X73.812 Y75.974 E1.81971
G1 X73.887 Y75.429 E0.01726
G1 X74.096 Y74.920 E0.01726
G1 X74.426 Y74.479 E0.01726
G1 X74.855 Y74.135 E0.01726
G1 X75.402 Y73.895 E0.01873
G1 X75.994 Y73.811 E0.01873
G1 X174.004 Y73.811 E3.07302
G1 X174.830 Y73.975 E0.02642
G1 X175.534 Y74.439 E0.02642
G1 X176.011 Y75.137 E0.02653
G1 X176.188 Y75.961 E0.02642
G1 X176.188 Y134.037 E1.82091
G1 X176.111 Y134.578 E0.01714
G1 X175.902 Y135.083 E0.01714
G1 X175.574 Y135.521 E0.01714
G1 X175.145 Y135.865 E0.01726
G1 X174.341 Y136.162 E0.02687
G1 X138.787 Y141.583 E1.12763
G1 X110.677 Y141.591 E0.88139
G1 X75.620 Y136.155 E1.11232
G1 X74.825 Y135.832 E0.02690
G1 F8640
G1 X74.136 Y135.146 E-0.22463
G1 X73.896 Y134.603 E-0.13713
G1 X73.811 Y134.011 E-0.13797
G1 X73.811 Y132.884 E-0.26027
G1 E-0.04000 F2100.00000
G1 Z0.800 F10800.000
G1 X110.691 Y139.403
G1 Z0.200
G1 E0.80000 F2100.00000
G1 F1200
G1 X110.691 Y134.414 E0.15644
G1 X111.445 Y134.414 E0.02365
G1 X111.445 Y139.233 E0.15112
G1 X112.200 Y139.233 E0.02365
G1 X112.200 Y134.414 E0.15112
G1 X112.954 Y134.414 E0.02365
G1 X112.954 Y139.233 E0.15112
G1 X113.708 Y139.233 E0.02365
G1 X113.708 Y134.414 E0.15112
G1 X114.462 Y134.414 E0.02365
G1 X114.462 Y139.233 E0.15112
G1 X115.216 Y139.233 E0.02365
G1 X115.216 Y134.414 E0.15112
G1 X115.970 Y134.414 E0.02365
G1 X115.970 Y139.233 E0.15112
G1 X116.725 Y139.233 E0.02365
G1 X116.725 Y134.414 E0.15112
G1 X117.479 Y134.414 E0.02365
G1 X117.479 Y139.233 E0.15112
G1 X118.233 Y139.233 E0.02365
G1 X118.233 Y134.414 E0.15112
G1 X118.987 Y134.414 E0.02365
G1 X118.987 Y139.233 E0.15112
G1 X119.741 Y139.233 E0.02365
G1 X119.741 Y134.414 E0.15112
G1 X120.495 Y134.414 E0.02365
G1 X120.495 Y139.233 E0.15112
G1 X121.250 Y139.233 E0.02365
G1 X121.250 Y134.414 E0.15112
G1 X122.004 Y134.414 E0.02365
G1 X122.004 Y139.233 E0.15112
G1 X122.758 Y139.233 E0.02365
G1 X122.758 Y134.414 E0.15112
G1 X123.512 Y134.414 E0.02365
G1 X123.512 Y139.233 E0.15112
G1 X124.266 Y139.233 E0.02365
G1 X124.266 Y134.414 E0.15112
G1 X125.020 Y134.414 E0.02365
G1 X125.020 Y139.233 E0.15112
G1 X125.774 Y139.233 E0.02365
G1 X125.774 Y134.414 E0.15112
G1 X126.529 Y134.414 E0.02365
G1 X126.529 Y139.233 E0.15112
G1 X127.283 Y139.233 E0.02365
G1 X127.283 Y134.414 E0.15112
G1 X128.037 Y134.414 E0.02365
G1 X128.037 Y139.233 E0.15112
G1 X128.791 Y139.233 E0.02365
G1 X128.791 Y134.414 E0.15112
G1 X129.545 Y134.414 E0.02365
G1 X129.545 Y139.233 E0.15112
G1 X130.299 Y139.233 E0.02365
G1 X130.299 Y134.414 E0.15112
G1 X131.054 Y134.414 E0.02365
G1 X131.054 Y139.233 E0.15112
G1 X131.808 Y139.233 E0.02365
G1 X131.808 Y134.414 E0.15112
G1 X132.562 Y134.414 E0.02365
G1 X132.562 Y139.233 E0.15112
G1 X133.316 Y139.233 E0.02365
G1 X133.316 Y134.414 E0.15112
G1 X134.070 Y134.414 E0.02365
G1 X134.070 Y139.233 E0.15112
G1 X134.824 Y139.233 E0.02365
G1 X134.824 Y134.414 E0.15112
G1 X135.579 Y134.414 E0.02365
G1 X135.579 Y139.233 E0.15112
G1 X136.333 Y139.233 E0.02365
G1 X136.333 Y134.414 E0.15112
G1 X137.087 Y134.414 E0.02365
G1 X137.087 Y139.233 E0.15112
G1 X137.841 Y139.233 E0.02365
G1 X137.841 Y134.414 E0.15112
G1 X138.595 Y134.414 E0.02365
G1 X138.595 Y139.403 E0.15644
G1 F8640
G1 X138.595 Y136.112 E-0.76000
G1 E-0.04000 F2100.00000
G1 Z0.800 F10800.000
G1 X131.808 Y132.256
G1 Z0.200
G1 E0.80000 F2100.00000
G1 F1200
G1 X131.808 Y128.657 E0.11285
G1 X131.054 Y128.657 E0.02365
G1 X131.054 Y132.086 E0.10752
G1 X130.299 Y132.086 E0.02365
G1 X130.299 Y128.657 E0.10752
G1 X129.545 Y128.657 E0.02365
G1 X129.545 Y132.086 E0.10752
G1 X128.791 Y132.086 E0.02365
G1 X128.791 Y128.657 E0.10752
G1 X128.037 Y128.657 E0.02365
G1 X128.037 Y132.086 E0.10752
G1 X127.283 Y132.086 E0.02365
G1 X127.283 Y128.657 E0.10752
G1 X126.529 Y128.657 E0.02365
G1 X126.529 Y132.086 E0.10752
G1 X125.774 Y132.086 E0.02365
G1 X125.774 Y128.657 E0.10752
G1 X125.020 Y128.657 E0.02365
G1 X125.020 Y132.086 E0.10752
G1 X124.266 Y132.086 E0.02365
G1 X124.266 Y128.657 E0.10752
G1 X123.512 Y128.657 E0.02365
G1 X123.512 Y132.086 E0.10752
G1 X122.758 Y132.086 E0.02365
G1 X122.758 Y128.657 E0.10752
G1 X122.004 Y128.657 E0.02365
G1 X122.004 Y132.086 E0.10752
G1 X121.250 Y132.086 E0.02365
G1 X121.250 Y128.657 E0.10752
G1 X120.495 Y128.657 E0.02365
G1 X120.495 Y132.086 E0.10752
G1 X119.741 Y132.086 E0.02365
G1 X119.741 Y128.657 E0.10752
G1 X118.987 Y128.657 E0.02365
G1 X118.987 Y132.086 E0.10752
G1 X118.233 Y132.086 E0.02365
G1 X118.233 Y128.487 E0.11285
G1 F8640
G1 X118.233 Y131.779 E-0.76000
G1 E-0.04000 F2100.00000
G1 Z0.800 F10800.000
G1 X117.163 Y119.913
G1 Z0.200
G1 E0.80000 F2100.00000
G1 F1200
G1 X132.837 Y119.913 E0.49145
G1 X132.837 Y133.087 E0.41307
G1 X117.163 Y133.087 E0.49145
G1 X117.163 Y119.973 E0.41119
G1 X117.540 Y120.290 F10800.000
G1 F1200
G1 X132.460 Y120.290 E0.46781
G1 X132.460 Y132.710 E0.38942
G1 X117.540 Y132.710 E0.46781
G1 X117.540 Y120.350 E0.38754
G1 X117.425 Y119.907 F10800.000
G1 F8640
G1 X120.831 Y120.337 E-0.76000
G1 E-0.04000 F2100.00000
G1 Z0.800 F10800.000
G1 X150.913 Y91.087
G1 Z0.200
G1 E0.80000 F2100.00000
G1 F1200
G1 X150.913 Y84.913 E0.19359
G1 X164.087 Y84.913 E0.41307
G1 X164.087 Y91.087 E0.19359
G1 X150.973 Y91.087 E0.41119
G1 X151.290 Y90.710 F10800.000
G1 F1200
G1 X151.290 Y85.290 E0.16994
G1 X163.710 Y85.290 E0.38942
G1 X163.710 Y90.710 E0.16994
G1 X151.350 Y90.710 E0.38754
G1 X150.894 Y90.765 F10800.000
G1 F8640
G1 X151.314 Y87.419 E-0.76000
G1 E-0.04000 F2100.00000
G1 Z0.800 F10800.000
G1 X173.413 Y76.587
G1 Z0.200
G1 E0.80000 F2100.00000
G1 F1200
G1 X173.413 Y133.413 E1.78173
G1 X76.587 Y133.413 E3.03591
G1 X76.587 Y76.587 E1.78173
G1 X173.353 Y76.587 E3.03403
M73 Q0 S333
M73 P0 R332
G1 X173.790 Y76.210 F10800.000
G1 F1200
G1 X173.790 Y133.790 E1.80538
G1 X76.210 Y133.790 E3.05955
G1 X76.210 Y76.210 E1.80538
G1 X173.730 Y76.210 E3.05767
G1 X173.654 Y76.586 F10800.000
G1 F8640
G1 X173.733 Y79.501 E-0.76000
G1 E-0.04000 F2100.00000
G1 Z0.800 F10800.000
G1 X173.300 Y77.464
G1 Z0.200
G1 E0.80000 F2100.00000
G1 F1200
G1 X172.706 Y76.870 E0.02637
G1 X172.172 Y76.870 E0.01677
G1 X173.130 Y77.828 E0.04255
G1 X173.130 Y78.362 E0.01677
G1 X171.638 Y76.870 E0.06626
G1 X171.104 Y76.870 E0.01677
G1 X173.130 Y78.896 E0.08998
G1 X173.130 Y79.430 E0.01677
G1 X170.570 Y76.870 E0.11370
G1 X170.036 Y76.870 E0.01677
G1 X173.130 Y79.964 E0.13741
G1 X173.130 Y80.498 E0.01677
G1 X169.502 Y76.870 E0.16113
G1 X168.968 Y76.870 E0.01677
G1 X173.130 Y81.032 E0.18484
G1 X173.130 Y81.566 E0.01677
G1 X168.434 Y76.870 E0.20856
G1 X167.900 Y76.870 E0.01677
G1 X173.130 Y82.100 E0.23228
G1 X173.130 Y82.635 E0.01677
G1 X167.365 Y76.870 E0.25599
G1 X166.831 Y76.870 E0.01677
G1 X173.130 Y83.169 E0.27971
G1 X173.130 Y83.703 E0.01677
G1 X166.297 Y76.870 E0.30342
G1 X165.763 Y76.870 E0.01677
G1 X173.130 Y84.237 E0.32714
G1 X173.130 Y84.771 E0.01677
G1 X165.229 Y76.870 E0.35086
G1 X164.695 Y76.870 E0.01677
G1 X173.130 Y85.305 E0.37457
G1 X173.130 Y85.839 E0.01677
G1 X164.161 Y76.870 E0.39829
G1 X163.627 Y76.870 E0.01677
G1 X173.130 Y86.373 E0.42200
G1 X173.130 Y86.907 E0.01677
G1 X163.093 Y76.870 E0.44572
G1 X162.559 Y76.870 E0.01677
G1 X173.130 Y87.441 E0.46944
G1 X173.130 Y87.975 E0.01677
G1 X162.025 Y76.870 E0.49315
G1 X161.491 Y76.870 E0.01677
G1 X173.130 Y88.509 E0.51687
G1 X173.130 Y89.043 E0.01677
G1 X160.957 Y76.870 E0.54058
G1 X160.423 Y76.870 E0.01677
G1 X173.130 Y89.577 E0.56430
G1 X173.130 Y90.111 E0.01677
G1 X159.889 Y76.870 E0.58802
G1 X159.355 Y76.870 E0.01677
G1 X173.130 Y90.645 E0.61173
G1 X173.130 Y91.179 E0.01677
G1 X158.821 Y76.870 E0.63545
G1 X158.286 Y76.870 E0.01677
G1 X173.130 Y91.714 E0.65916
G1 X173.130 Y92.248 E0.01677
G1 X157.752 Y76.870 E0.68288
G1 X157.218 Y76.870 E0.01677
G1 X173.130 Y92.782 E0.70660
G1 X173.130 Y93.316 E0.01677
G1 X156.684 Y76.870 E0.73031
G1 X156.150 Y76.870 E0.01677
G1 X163.911 Y84.630 E0.34461
G1 X163.376 Y84.630 E0.01677
G1 X155.616 Y76.870 E0.34461
G1 X155.082 Y76.870 E0.01677
G1 X162.842 Y84.630 E0.34461
G1 X162.308 Y84.630 E0.01677
G1 X154.548 Y76.870 E0.34461
G1 X154.014 Y76.870 E0.01677
G1 X161.774 Y84.630 E0.34461
G1 X161.240 Y84.630 E0.01677
G1 X153.480 Y76.870 E0.34461
G1 X152.946 Y76.870 E0.01677
G1 X160.706 Y84.630 E0.34461
G1 X160.172 Y84.630 E0.01677
G1 X152.412 Y76.870 E0.34461
G1 X151.878 Y76.870 E0.01677
G1 X159.638 Y84.630 E0.34461
G1 X159.104 Y84.630 E0.01677
G1 X151.344 Y76.870 E0.34461
G1 X150.810 Y76.870 E0.01677
G1 X158.570 Y84.630 E0.34461
G1 X158.036 Y84.630 E0.01677
G1 X150.276 Y76.870 E0.34461
G1 X149.742 Y76.870 E0.01677
G1 X157.502 Y84.630 E0.34461
G1 X156.968 Y84.630 E0.01677
G1 X149.208 Y76.870 E0.34461
G1 X148.673 Y76.870 E0.01677
G1 X156.434 Y84.630 E0.34461
G1 X155.900 Y84.630 E0.01677
G1 X148.139 Y76.870 E0.34461
G1 X147.605 Y76.870 E0.01677
G1 X155.366 Y84.630 E0.34461
G1 X154.832 Y84.630 E0.01677
G1 X147.071 Y76.870 E0.34461
G1 X146.537 Y76.870 E0.01677
G1 X154.297 Y84.630 E0.34461
G1 X153.763 Y84.630 E0.01677
G1 X146.003 Y76.870 E0.34461
G1 X145.469 Y76.870 E0.01677
G1 X153.229 Y84.630 E0.34461
G1 X152.695 Y84.630 E0.01677
G1 X144.935 Y76.870 E0.34461
G1 X144.401 Y76.870 E0.01677
G1 X152.161 Y84.630 E0.34461
G1 X151.627 Y84.630 E0.01677
G1 X143.867 Y76.870 E0.34461
G1 X143.333 Y76.870 E0.01677
G1 X151.093 Y84.630 E0.34461
G1 X150.630 Y84.630 E0.01454
G1 X150.630 Y84.701 E0.00223
G1 X142.799 Y76.870 E0.34777
G1 X142.265 Y76.870 E0.01677
G1 X150.630 Y85.235 E0.37148
G1 X150.630 Y85.769 E0.01677
G1 X141.731 Y76.870 E0.39520
G1 X141.197 Y76.870 E0.01677
G1 X150.630 Y86.303 E0.41891
G1 X150.630 Y86.837 E0.01677
G1 X140.663 Y76.870 E0.44263
G1 X140.129 Y76.870 E0.01677
G1 X150.630 Y87.371 E0.46635
G1 X150.630 Y87.906 E0.01677
G1 X139.594 Y76.870 E0.49006
G1 X139.060 Y76.870 E0.01677
G1 X150.630 Y88.440 E0.51378
G1 X150.630 Y88.974 E0.01677
G1 X138.526 Y76.870 E0.53749
G1 X137.992 Y76.870 E0.01677
G1 X150.630 Y89.508 E0.56121
G1 X150.630 Y90.042 E0.01677
G1 X137.458 Y76.870 E0.58493
G1 X136.924 Y76.870 E0.01677
G1 X150.800 Y90.746 E0.61618
G1 X151.254 Y91.200 F10800.000
G1 F1200
G1 X173.130 Y113.076 E0.97143
M73 Q0 S332
M73 P0 R331
G1 X173.130 Y112.542 E0.01677
G1 X151.958 Y91.370 E0.94018
G1 X152.492 Y91.370 E0.01677
G1 X173.130 Y112.008 E0.91647
G1 X173.130 Y111.474 E0.01677
G1 X153.026 Y91.370 E0.89275
G1 X153.560 Y91.370 E0.01677
G1 X173.130 Y110.940 E0.86904
G1 X173.130 Y110.406 E0.01677
G1 X154.094 Y91.370 E0.84532
G1 X154.629 Y91.370 E0.01677
G1 X173.130 Y109.871 E0.82160
G1 X173.130 Y109.337 E0.01677
G1 X155.163 Y91.370 E0.79789
G1 X155.697 Y91.370 E0.01677
G1 X173.130 Y108.803 E0.77417
G1 X173.130 Y108.269 E0.01677
G1 X156.231 Y91.370 E0.75046
G1 X156.765 Y91.370 E0.01677
G1 X173.130 Y107.735 E0.72674
G1 X173.130 Y107.201 E0.01677
G1 X157.299 Y91.370 E0.70302
G1 X157.833 Y91.370 E0.01677
G1 X173.130 Y106.667 E0.67931
G1 X173.130 Y106.133 E0.01677
G1 X158.367 Y91.370 E0.65559
G1 X158.901 Y91.370 E0.01677
G1 X173.130 Y105.599 E0.63188
G1 X173.130 Y105.065 E0.01677
G1 X159.435 Y91.370 E0.60816
G1 X159.969 Y91.370 E0.01677
G1 X173.130 Y104.531 E0.58444
G1 X173.130 Y103.997 E0.01677
G1 X160.503 Y91.370 E0.56073
G1 X161.037 Y91.370 E0.01677
G1 X173.130 Y103.463 E0.53701
G1 X173.130 Y102.929 E0.01677
G1 X161.571 Y91.370 E0.51330
G1 X162.105 Y91.370 E0.01677
G1 X173.130 Y102.395 E0.48958
G1 X173.130 Y101.861 E0.01677
G1 X162.639 Y91.370 E0.46586
G1 X163.173 Y91.370 E0.01677
G1 X173.130 Y101.327 E0.44215
G1 X173.130 Y100.792 E0.01677
G1 X163.708 Y91.370 E0.41843
G1 X164.242 Y91.370 E0.01677
G1 X173.130 Y100.258 E0.39472
G1 X173.130 Y99.724 E0.01677
G1 X164.370 Y90.964 E0.38902
G1 X164.370 Y90.430 E0.01677
G1 X173.130 Y99.190 E0.38902
G1 X173.130 Y98.656 E0.01677
G1 X164.370 Y89.896 E0.38902
G1 X164.370 Y89.362 E0.01677
G1 X173.130 Y98.122 E0.38902
G1 X173.130 Y97.588 E0.01677
G1 X164.370 Y88.828 E0.38902
G1 X164.370 Y88.294 E0.01677
G1 X173.130 Y97.054 E0.38902
G1 X173.130 Y96.520 E0.01677
G1 X164.370 Y87.760 E0.38902
G1 X164.370 Y87.226 E0.01677
G1 X173.130 Y95.986 E0.38902
G1 X173.130 Y95.452 E0.01677
G1 X164.370 Y86.692 E0.38902
G1 X164.370 Y86.158 E0.01677
G1 X173.130 Y94.918 E0.38902
G1 X173.130 Y94.384 E0.01677
G1 X164.370 Y85.624 E0.38902
G1 X164.370 Y85.089 E0.01677
G1 X173.300 Y94.019 E0.39655
G1 F8640
G1 X170.972 Y91.692 E-0.76000
G1 E-0.04000 F2100.00000
G1 Z0.800 F10800.000
G1 X173.300 Y113.780
G1 Z0.200
G1 E0.80000 F2100.00000
G1 F1200
G1 X136.390 Y76.870 E1.63905
G1 X135.856 Y76.870 E0.01677
G1 X173.130 Y114.144 E1.65523
G1 X173.130 Y114.678 E0.01677
G1 X135.322 Y76.870 E1.67895
G1 X134.788 Y76.870 E0.01677
G1 X173.130 Y115.212 E1.70267
G1 X173.130 Y115.746 E0.01677
G1 X134.254 Y76.870 E1.72638
G1 X133.720 Y76.870 E0.01677
G1 X173.130 Y116.280 E1.75010
G1 X173.130 Y116.814 E0.01677
G1 X133.186 Y76.870 E1.77381
G1 X132.652 Y76.870 E0.01677
G1 X173.130 Y117.348 E1.79753
G1 X173.130 Y117.882 E0.01677
G1 X132.118 Y76.870 E1.82125
G1 X131.584 Y76.870 E0.01677
M73 Q0 S331
G1 X173.130 Y118.416 E1.84496
M73 P0 R330
G1 X173.130 Y118.950 E0.01677
G1 X131.050 Y76.870 E1.86868
G1 X130.515 Y76.870 E0.01677
G1 X173.130 Y119.485 E1.89239
G1 X173.130 Y120.019 E0.01677
G1 X129.981 Y76.870 E1.91611
G1 X129.447 Y76.870 E0.01677
G1 X173.130 Y120.553 E1.93983
G1 X173.130 Y121.087 E0.01677
G1 X128.913 Y76.870 E1.96354
G1 X128.379 Y76.870 E0.01677
G1 X173.130 Y121.621 E1.98726
G1 X173.130 Y122.155 E0.01677
G1 X127.845 Y76.870 E2.01097
G1 X127.311 Y76.870 E0.01677
G1 X173.130 Y122.689 E2.03469
G1 X173.130 Y123.223 E0.01677
G1 X126.777 Y76.870 E2.05841
G1 X126.243 Y76.870 E0.01677
G1 X173.130 Y123.757 E2.08212
G1 X173.130 Y124.291 E0.01677
G1 X125.709 Y76.870 E2.10584
G1 X125.175 Y76.870 E0.01677
G1 X173.130 Y124.825 E2.12955
G1 X173.130 Y125.359 E0.01677
G1 X124.641 Y76.870 E2.15327
G1 X124.107 Y76.870 E0.01677
G1 X173.130 Y125.893 E2.17698
G1 X173.130 Y126.427 E0.01677
G1 X123.573 Y76.870 E2.20070
G1 X123.039 Y76.870 E0.01677
G1 X173.130 Y126.961 E2.22442
G1 X173.130 Y127.495 E0.01677
G1 X122.505 Y76.870 E2.24813
G1 X121.971 Y76.870 E0.01677
G1 X173.130 Y128.029 E2.27185
M73 Q1 S330
M73 P1 R329
G1 X173.130 Y128.564 E0.01677
G1 X121.436 Y76.870 E2.29556
G1 X120.902 Y76.870 E0.01677
G1 X173.130 Y129.098 E2.31928
G1 X173.130 Y129.632 E0.01677
G1 X120.368 Y76.870 E2.34300
G1 X119.834 Y76.870 E0.01677
G1 X173.130 Y130.166 E2.36671
G1 X173.130 Y130.700 E0.01677
G1 X119.300 Y76.870 E2.39043
G1 X118.766 Y76.870 E0.01677
G1 X173.130 Y131.234 E2.41414
G1 X173.130 Y131.768 E0.01677
G1 X118.232 Y76.870 E2.43786
G1 X117.698 Y76.870 E0.01677
G1 X173.130 Y132.302 E2.46158
G1 X173.130 Y132.836 E0.01677
G1 X117.164 Y76.870 E2.48529
