; generated by PrusaSlicer 2.0.0+win64 on 2024-11-17 at 16:37:11

; 

; external perimeters extrusion width = 0.45mm
; perimeters extrusion width = 0.45mm
; infill extrusion width = 0.45mm
; solid infill extrusion width = 0.45mm
; top infill extrusion width = 0.40mm
; first layer extrusion width = 0.42mm

M73 P0 R16
M73 Q0 S16
M201 X1000 Y1000 Z1000 E5000 ; sets maximum accelerations, mm/sec^2
M203 X200 Y200 Z12 E120 ; sets maximum feedrates, mm/sec
M204 P1250 R1250 T1250 ; sets acceleration (P, T) and retract acceleration (R), mm/sec^2
M205 X8.00 Y8.00 Z0.40 E1.50 ; sets the jerk limits, mm/sec
M205 S0 T0 ; sets the minimum extruding and travel feed rate, mm/sec
M107
M115 U3.7.1 ; tell printer latest fw version
G90 ; use absolute coordinates
M83 ; extruder relative mode
M104 S215 ; set extruder temp
M140 S60 ; set bed temp
M190 S60 ; wait for bed temp
M109 S215 ; wait for extruder temp
G28 W ; home all without mesh bed level
G80 ; mesh bed leveling
G1 Y-3.0 F1000.0 ; go outside print area
G92 E0.0
G1 X60.0 E9.0 F1000.0 ; intro line
M73 Q0 S16
M73 P0 R16
G1 X100.0 E12.5 F1000.0 ; intro line
G92 E0.0
M221 S95
M900 K30 ; Filament gcode
G21 ; set units to millimeters
G90 ; use absolute coordinates
M83 ; use relative distances for extrusion
;BEFORE_LAYER_CHANGE
G92 E0.0
;0.2


G1 E-0.80000 F2100.00000
G1 Z0.600 F10800.000
;AFTER_LAYER_CHANGE
;0.2
G1 X162.557 Y49.996
G1 Z0.200
G1 E0.80000 F2100.00000
M204 S1000
G1 F1200
G1 X163.402 Y49.814 E0.02709
G1 X213.433 Y49.814 E1.56870
G1 X214.253 Y49.975 E0.02620
G1 X214.956 Y50.434 E0.02631
G1 X215.434 Y51.123 E0.02631
G1 X215.617 Y51.938 E0.02620
G1 X215.618 Y102.028 E1.57053
G1 X215.456 Y102.830 E0.02563
G1 X215.011 Y103.515 E0.02563
G1 X214.292 Y104.014 E0.02743
G1 X213.432 Y104.191 E0.02754
G1 X163.404 Y104.191 E1.56859
G1 X162.603 Y104.029 E0.02563
G1 X161.917 Y103.584 E0.02563
G1 X161.418 Y102.865 E0.02743
G1 X161.241 Y102.005 E0.02754
G1 X161.241 Y51.977 E1.56859
G1 X161.403 Y51.176 E0.02563
G1 X161.848 Y50.490 E0.02563
G1 X162.508 Y50.030 E0.02521
G1 F8640
G1 X163.402 Y49.814 E-0.21237
G1 X165.774 Y49.814 E-0.54763
G1 E-0.04000 F2100.00000
G1 Z0.800 F10800.000
G1 X164.017 Y52.590
G1 Z0.200
G1 E0.80000 F2100.00000
G1 F1200
G1 X212.843 Y52.590 E1.53090
G1 X212.843 Y101.416 E1.53090
G1 X164.017 Y101.416 E1.53090
G1 X164.017 Y52.650 E1.52902
G1 X163.640 Y52.213 F10800.000
G1 F1200
G1 X213.220 Y52.213 E1.55455
G1 X213.220 Y101.793 E1.55455
G1 X163.640 Y101.793 E1.55455
G1 X163.640 Y52.273 E1.55266
G1 X164.026 Y52.316 F10800.000
G1 F8640
G1 X166.931 Y52.269 E-0.76000
G1 E-0.04000 F2100.00000
G1 Z0.800 F10800.000
G1 X164.894 Y101.303
G1 Z0.200
G1 E0.80000 F2100.00000
G1 F1200
G1 X164.300 Y100.708 E0.02642
G1 X164.300 Y100.174 E0.01680
G1 X165.259 Y101.133 E0.04263
G1 X165.793 Y101.133 E0.01680
G1 X164.300 Y99.639 E0.06638
G1 X164.300 Y99.105 E0.01680
G1 X166.328 Y101.133 E0.09014
G1 X166.862 Y101.133 E0.01680
G1 X164.300 Y98.570 E0.11389
G1 X164.300 Y98.036 E0.01680
G1 X167.397 Y101.133 E0.13764
G1 X167.931 Y101.133 E0.01680
G1 X164.300 Y97.501 E0.16140
G1 X164.300 Y96.967 E0.01680
G1 X168.466 Y101.133 E0.18515
G1 X169.000 Y101.133 E0.01680
G1 X164.300 Y96.432 E0.20890
G1 X164.300 Y95.898 E0.01680
G1 X169.535 Y101.133 E0.23266
G1 X170.069 Y101.133 E0.01680
G1 X164.300 Y95.363 E0.25641
G1 X164.300 Y94.829 E0.01680
G1 X170.604 Y101.133 E0.28016
G1 X171.138 Y101.133 E0.01680
G1 X164.300 Y94.294 E0.30391
G1 X164.300 Y93.760 E0.01680
G1 X171.673 Y101.133 E0.32767
G1 X172.207 Y101.133 E0.01680
G1 X164.300 Y93.225 E0.35142
G1 X164.300 Y92.691 E0.01680
G1 X172.741 Y101.133 E0.37517
G1 X173.276 Y101.133 E0.01680
G1 X164.300 Y92.156 E0.39893
G1 X164.300 Y91.622 E0.01680
G1 X173.810 Y101.133 E0.42268
G1 X174.345 Y101.133 E0.01680
G1 X164.300 Y91.088 E0.44643
G1 X164.300 Y90.553 E0.01680
G1 X174.879 Y101.133 E0.47019
G1 X175.414 Y101.133 E0.01680
G1 X164.300 Y90.019 E0.49394
G1 X164.300 Y89.484 E0.01680
G1 X175.948 Y101.133 E0.51769
G1 X176.483 Y101.133 E0.01680
G1 X164.300 Y88.950 E0.54144
G1 X164.300 Y88.415 E0.01680
G1 X177.017 Y101.133 E0.56520
G1 X177.552 Y101.133 E0.01680
G1 X164.300 Y87.881 E0.58895
G1 X164.300 Y87.346 E0.01680
G1 X178.086 Y101.133 E0.61270
G1 X178.621 Y101.133 E0.01680
G1 X164.300 Y86.812 E0.63646
G1 X164.300 Y86.277 E0.01680
G1 X179.155 Y101.133 E0.66021
G1 X179.690 Y101.133 E0.01680
G1 X164.300 Y85.743 E0.68396
G1 X164.300 Y85.208 E0.01680
G1 X180.224 Y101.133 E0.70772
G1 X180.759 Y101.133 E0.01680
G1 X164.300 Y84.674 E0.73147
G1 X164.300 Y84.139 E0.01680
G1 X181.293 Y101.133 E0.75522
G1 X181.828 Y101.133 E0.01680
G1 X164.300 Y83.605 E0.77897
G1 X164.300 Y83.070 E0.01680
G1 X182.362 Y101.133 E0.80273
G1 X182.897 Y101.133 E0.01680
G1 X164.300 Y82.536 E0.82648
G1 X164.300 Y82.001 E0.01680
G1 X183.431 Y101.133 E0.85023
M73 Q6 S15
M73 P6 R14
G1 X183.965 Y101.133 E0.01680
G1 X164.300 Y81.467 E0.87399
G1 X164.300 Y80.932 E0.01680
G1 X184.500 Y101.133 E0.89774
G1 X185.034 Y101.133 E0.01680
G1 X164.300 Y80.398 E0.92149
G1 X164.300 Y79.864 E0.01680
G1 X185.569 Y101.133 E0.94525
G1 X186.103 Y101.133 E0.01680
G1 X164.300 Y79.329 E0.96900
G1 X164.300 Y78.795 E0.01680
G1 X186.638 Y101.133 E0.99275
G1 X187.172 Y101.133 E0.01680
G1 X164.300 Y78.260 E1.01651
G1 X164.300 Y77.726 E0.01680
G1 X187.707 Y101.133 E1.04026
G1 X188.241 Y101.133 E0.01680
G1 X164.300 Y77.191 E1.06401
G1 X164.300 Y76.657 E0.01680
G1 X188.776 Y101.133 E1.08776
G1 X189.310 Y101.133 E0.01680
G1 X164.300 Y76.122 E1.11152
G1 X164.300 Y75.588 E0.01680
G1 X189.845 Y101.133 E1.13527
G1 X190.379 Y101.133 E0.01680
G1 X164.300 Y75.053 E1.15902
G1 X164.300 Y74.519 E0.01680
G1 X190.914 Y101.133 E1.18278
G1 X191.448 Y101.133 E0.01680
G1 X164.300 Y73.984 E1.20653
G1 X164.300 Y73.450 E0.01680
G1 X191.983 Y101.133 E1.23028
G1 X192.517 Y101.133 E0.01680
G1 X164.300 Y72.915 E1.25404
G1 X164.300 Y72.381 E0.01680
G1 X193.052 Y101.133 E1.27779
G1 X193.586 Y101.133 E0.01680
G1 X164.300 Y71.846 E1.30154
G1 X164.300 Y71.312 E0.01680
G1 X194.120 Y101.133 E1.32529
G1 X194.655 Y101.133 E0.01680
G1 X164.300 Y70.777 E1.34905
G1 X164.300 Y70.243 E0.01680
G1 X195.189 Y101.133 E1.37280
G1 X195.724 Y101.133 E0.01680
G1 X164.300 Y69.709 E1.39655
G1 X164.300 Y69.174 E0.01680
G1 X196.258 Y101.133 E1.42031
G1 X196.793 Y101.133 E0.01680
G1 X164.300 Y68.640 E1.44406
G1 X164.300 Y68.105 E0.01680
G1 X197.327 Y101.133 E1.46781
G1 X197.862 Y101.133 E0.01680
G1 X164.300 Y67.571 E1.49157
G1 X164.300 Y67.036 E0.01680
G1 X198.396 Y101.133 E1.51532
G1 X198.931 Y101.133 E0.01680
G1 X164.300 Y66.502 E1.53907
G1 X164.300 Y65.967 E0.01680
G1 X199.465 Y101.133 E1.56283
G1 X200.000 Y101.133 E0.01680
G1 X164.300 Y65.433 E1.58658
M73 Q13 S13
M73 P13 R13
G1 X164.300 Y64.898 E0.01680
G1 X200.534 Y101.133 E1.61033
G1 X201.069 Y101.133 E0.01680
G1 X164.300 Y64.364 E1.63408
G1 X164.300 Y63.829 E0.01680
G1 X201.603 Y101.133 E1.65784
G1 X202.138 Y101.133 E0.01680
G1 X164.300 Y63.295 E1.68159
G1 X164.300 Y62.760 E0.01680
G1 X202.672 Y101.133 E1.70534
G1 X203.207 Y101.133 E0.01680
G1 X164.300 Y62.226 E1.72910
G1 X164.300 Y61.691 E0.01680
G1 X203.741 Y101.133 E1.75285
G1 X204.276 Y101.133 E0.01680
G1 X164.300 Y61.157 E1.77660
G1 X164.300 Y60.622 E0.01680
G1 X204.810 Y101.133 E1.80036
G1 X205.344 Y101.133 E0.01680
G1 X164.300 Y60.088 E1.82411
G1 X164.300 Y59.553 E0.01680
G1 X205.879 Y101.133 E1.84786
G1 X206.413 Y101.133 E0.01680
G1 X164.300 Y59.019 E1.87161
G1 X164.300 Y58.485 E0.01680
G1 X206.948 Y101.133 E1.89537
G1 X207.482 Y101.133 E0.01680
G1 X164.300 Y57.950 E1.91912
G1 X164.300 Y57.416 E0.01680
G1 X208.017 Y101.133 E1.94287
G1 X208.551 Y101.133 E0.01680
G1 X164.300 Y56.881 E1.96663
G1 X164.300 Y56.347 E0.01680
G1 X209.086 Y101.133 E1.99038
G1 X209.620 Y101.133 E0.01680
G1 X164.300 Y55.812 E2.01413
G1 X164.300 Y55.278 E0.01680
G1 X210.155 Y101.133 E2.03789
G1 X210.689 Y101.133 E0.01680
G1 X164.300 Y54.743 E2.06164
G1 X164.300 Y54.209 E0.01680
G1 X211.224 Y101.133 E2.08539
M73 Q20 S12
M73 P20 R12
G1 X211.758 Y101.133 E0.01680
G1 X164.300 Y53.674 E2.10914
G1 X164.300 Y53.140 E0.01680
G1 X212.293 Y101.133 E2.13290
G1 X212.560 Y101.133 E0.00840
G1 X212.560 Y100.866 E0.00840
G1 X164.567 Y52.873 E2.13289
G1 X165.101 Y52.873 E0.01680
G1 X212.560 Y100.331 E2.10914
G1 X212.560 Y99.797 E0.01680
G1 X165.636 Y52.873 E2.08539
G1 X166.170 Y52.873 E0.01680
G1 X212.560 Y99.262 E2.06164
G1 X212.560 Y98.728 E0.01680
G1 X166.705 Y52.873 E2.03788
G1 X167.239 Y52.873 E0.01680
G1 X212.560 Y98.193 E2.01413
G1 X212.560 Y97.659 E0.01680
G1 X167.774 Y52.873 E1.99038
G1 X168.308 Y52.873 E0.01680
G1 X212.560 Y97.124 E1.96662
G1 X212.560 Y96.590 E0.01680
G1 X168.843 Y52.873 E1.94287
G1 X169.377 Y52.873 E0.01680
G1 X212.560 Y96.055 E1.91912
G1 X212.560 Y95.521 E0.01680
G1 X169.912 Y52.873 E1.89536
G1 X170.446 Y52.873 E0.01680
G1 X212.560 Y94.986 E1.87161
G1 X212.560 Y94.452 E0.01680
G1 X170.981 Y52.873 E1.84786
G1 X171.515 Y52.873 E0.01680
G1 X212.560 Y93.917 E1.82411
G1 X212.560 Y93.383 E0.01680
G1 X172.050 Y52.873 E1.80035
G1 X172.584 Y52.873 E0.01680
G1 X212.560 Y92.848 E1.77660
G1 X212.560 Y92.314 E0.01680
G1 X173.118 Y52.873 E1.75285
M73 Q26 S11
M73 P26 R11
G1 X173.653 Y52.873 E0.01680
G1 X212.560 Y91.780 E1.72909
G1 X212.560 Y91.245 E0.01680
G1 X174.187 Y52.873 E1.70534
G1 X174.722 Y52.873 E0.01680
G1 X212.560 Y90.711 E1.68159
G1 X212.560 Y90.176 E0.01680
G1 X175.256 Y52.873 E1.65783
G1 X175.791 Y52.873 E0.01680
G1 X212.560 Y89.642 E1.63408
G1 X212.560 Y89.107 E0.01680
G1 X176.325 Y52.873 E1.61033
G1 X176.860 Y52.873 E0.01680
G1 X212.560 Y88.573 E1.58657
G1 X212.560 Y88.038 E0.01680
G1 X177.394 Y52.873 E1.56282
G1 X177.929 Y52.873 E0.01680
G1 X212.560 Y87.504 E1.53907
G1 X212.560 Y86.969 E0.01680
G1 X178.463 Y52.873 E1.51532
G1 X178.998 Y52.873 E0.01680
G1 X212.560 Y86.435 E1.49156
G1 X212.560 Y85.900 E0.01680
G1 X179.532 Y52.873 E1.46781
G1 X180.067 Y52.873 E0.01680
G1 X212.560 Y85.366 E1.44406
G1 X212.560 Y84.831 E0.01680
G1 X180.601 Y52.873 E1.42030
G1 X181.136 Y52.873 E0.01680
G1 X212.560 Y84.297 E1.39655
G1 X212.560 Y83.762 E0.01680
G1 X181.670 Y52.873 E1.37280
G1 X182.205 Y52.873 E0.01680
G1 X212.560 Y83.228 E1.34904
G1 X212.560 Y82.693 E0.01680
G1 X182.739 Y52.873 E1.32529
G1 X183.273 Y52.873 E0.01680
G1 X212.560 Y82.159 E1.30154
G1 X212.560 Y81.624 E0.01680
G1 X183.808 Y52.873 E1.27779
G1 X184.342 Y52.873 E0.01680
G1 X212.560 Y81.090 E1.25403
G1 X212.560 Y80.556 E0.01680
G1 X184.877 Y52.873 E1.23028
G1 X185.411 Y52.873 E0.01680
G1 X212.560 Y80.021 E1.20653
G1 X212.560 Y79.487 E0.01680
G1 X185.946 Y52.873 E1.18277
G1 X186.480 Y52.873 E0.01680
G1 X212.560 Y78.952 E1.15902
G1 X212.560 Y78.418 E0.01680
G1 X187.015 Y52.873 E1.13527
M73 Q33 S10
M73 P33 R10
G1 X187.549 Y52.873 E0.01680
G1 X212.560 Y77.883 E1.11151
G1 X212.560 Y77.349 E0.01680
G1 X188.084 Y52.873 E1.08776
G1 X188.618 Y52.873 E0.01680
G1 X212.560 Y76.814 E1.06401
G1 X212.560 Y76.280 E0.01680
G1 X189.153 Y52.873 E1.04026
G1 X189.687 Y52.873 E0.01680
G1 X212.560 Y75.745 E1.01650
G1 X212.560 Y75.211 E0.01680
G1 X190.222 Y52.873 E0.99275
G1 X190.756 Y52.873 E0.01680
G1 X212.560 Y74.676 E0.96900
G1 X212.560 Y74.142 E0.01680
G1 X191.291 Y52.873 E0.94524
G1 X191.825 Y52.873 E0.01680
G1 X212.560 Y73.607 E0.92149
G1 X212.560 Y73.073 E0.01680
G1 X192.360 Y52.873 E0.89774
G1 X192.894 Y52.873 E0.01680
G1 X212.560 Y72.538 E0.87398
G1 X212.560 Y72.004 E0.01680
G1 X193.429 Y52.873 E0.85023
G1 X193.963 Y52.873 E0.01680
G1 X212.560 Y71.469 E0.82648
G1 X212.560 Y70.935 E0.01680
G1 X194.497 Y52.873 E0.80272
G1 X195.032 Y52.873 E0.01680
G1 X212.560 Y70.400 E0.77897
G1 X212.560 Y69.866 E0.01680
G1 X195.566 Y52.873 E0.75522
G1 X196.101 Y52.873 E0.01680
G1 X212.560 Y69.332 E0.73147
G1 X212.560 Y68.797 E0.01680
G1 X196.635 Y52.873 E0.70771
G1 X197.170 Y52.873 E0.01680
G1 X212.560 Y68.263 E0.68396
G1 X212.560 Y67.728 E0.01680
G1 X197.704 Y52.873 E0.66021
G1 X198.239 Y52.873 E0.01680
G1 X212.560 Y67.194 E0.63645
G1 X212.560 Y66.659 E0.01680
G1 X198.773 Y52.873 E0.61270
G1 X199.308 Y52.873 E0.01680
G1 X212.560 Y66.125 E0.58895
G1 X212.560 Y65.590 E0.01680
G1 X199.842 Y52.873 E0.56519
G1 X200.377 Y52.873 E0.01680
G1 X212.560 Y65.056 E0.54144
G1 X212.560 Y64.521 E0.01680
G1 X200.911 Y52.873 E0.51769
G1 X201.446 Y52.873 E0.01680
G1 X212.560 Y63.987 E0.49394
G1 X212.560 Y63.452 E0.01680
G1 X201.980 Y52.873 E0.47018
G1 X202.515 Y52.873 E0.01680
G1 X212.560 Y62.918 E0.44643
G1 X212.560 Y62.383 E0.01680
G1 X203.049 Y52.873 E0.42268
G1 X203.584 Y52.873 E0.01680
G1 X212.560 Y61.849 E0.39892
G1 X212.560 Y61.314 E0.01680
G1 X204.118 Y52.873 E0.37517
G1 X204.652 Y52.873 E0.01680
G1 X212.560 Y60.780 E0.35142
G1 X212.560 Y60.245 E0.01680
G1 X205.187 Y52.873 E0.32766
G1 X205.721 Y52.873 E0.01680
G1 X212.560 Y59.711 E0.30391
G1 X212.560 Y59.177 E0.01680
G1 X206.256 Y52.873 E0.28016
G1 X206.790 Y52.873 E0.01680
G1 X212.560 Y58.642 E0.25641
G1 X212.560 Y58.108 E0.01680
G1 X207.325 Y52.873 E0.23265
G1 X207.859 Y52.873 E0.01680
G1 X212.560 Y57.573 E0.20890
G1 X212.560 Y57.039 E0.01680
G1 X208.394 Y52.873 E0.18515
G1 X208.928 Y52.873 E0.01680
G1 X212.560 Y56.504 E0.16139
G1 X212.560 Y55.970 E0.01680
G1 X209.463 Y52.873 E0.13764
G1 X209.997 Y52.873 E0.01680
G1 X212.560 Y55.435 E0.11389
G1 X212.560 Y54.901 E0.01680
G1 X210.532 Y52.873 E0.09013
G1 X211.066 Y52.873 E0.01680
G1 X212.560 Y54.366 E0.06638
G1 X212.560 Y53.832 E0.01680
G1 X211.601 Y52.873 E0.04263
G1 X212.135 Y52.873 E0.01680
G1 X212.730 Y53.467 E0.02642
M106 S255
;BEFORE_LAYER_CHANGE
G92 E0.0
;0.35


G1 F8640
G1 X212.135 Y52.873 E-0.19410
G1 X211.601 Y52.873 E-0.12341
G1 X212.560 Y53.832 E-0.31322
G1 X212.560 Y54.366 E-0.12341
G1 X212.542 Y54.348 E-0.00586
G1 E-0.04000 F2100.00000
G1 Z0.800 F10800.000
;AFTER_LAYER_CHANGE
;0.35
G1 X215.434 Y51.123
G1 Z0.350
G1 E0.80000 F2100.00000
G1 F3000
G1 X215.617 Y51.938 E0.02021
G1 X215.618 Y102.028 E1.21142
G1 X215.456 Y102.830 E0.01977
G1 X215.011 Y103.515 E0.01977
G1 X214.292 Y104.014 E0.02116
G1 X213.432 Y104.191 E0.02125
G1 X163.404 Y104.191 E1.20992
G1 X162.603 Y104.029 E0.01977
G1 X161.917 Y103.584 E0.01977
G1 X161.418 Y102.865 E0.02116
G1 X161.241 Y102.005 E0.02125
G1 X161.241 Y51.977 E1.20992
G1 X161.403 Y51.176 E0.01977
G1 X161.848 Y50.490 E0.01977
G1 X162.557 Y49.996 E0.02090
G1 X163.402 Y49.814 E0.02090
G1 X213.433 Y49.814 E1.21000
G1 X214.253 Y49.975 E0.02021
G1 X214.956 Y50.434 E0.02029
G1 X215.400 Y51.074 E0.01884
G1 F8640
G1 X215.617 Y51.938 E-0.20581
G1 X215.617 Y54.338 E-0.55419
G1 E-0.04000 F2100.00000
G1 Z0.950 F10800.000
G1 X212.787 Y52.646
G1 Z0.350
G1 E0.80000 F2100.00000
M204 S800
G1 F2700
G1 X212.787 Y101.360 E1.26929
G1 X164.073 Y101.360 E1.26929
G1 X164.073 Y52.646 E1.26929
G1 X212.727 Y52.646 E1.26773
M204 S1000
G1 X213.205 Y52.228 F10800.000
M204 S800
G1 F1500
G1 X213.205 Y101.778 E1.29106
G1 X163.655 Y101.778 E1.29106
G1 X163.655 Y52.228 E1.29106
G1 X213.145 Y52.228 E1.28950
M73 Q39 S9
M73 P39 R9
M204 S1000
G1 X213.101 Y52.614 F10800.000
G1 F8640
G1 X213.149 Y55.519 E-0.76000
G1 E-0.04000 F2100.00000
G1 Z0.950 F10800.000
G1 X164.198 Y53.616
G1 Z0.350
G1 E0.80000 F2100.00000
M204 S1250
G1 F4800
G1 X164.855 Y52.959 E0.02425
G1 X165.447 Y52.959 E0.01543
G1 X164.386 Y54.020 E0.03914
G1 X164.386 Y54.611 E0.01543
G1 X166.038 Y52.959 E0.06096
G1 X166.630 Y52.959 E0.01543
G1 X164.386 Y55.203 E0.08278
G1 X164.386 Y55.794 E0.01543
G1 X167.221 Y52.959 E0.10460
G1 X167.813 Y52.959 E0.01543
G1 X164.386 Y56.386 E0.12642
G1 X164.386 Y56.978 E0.01543
G1 X168.405 Y52.959 E0.14825
G1 X168.996 Y52.959 E0.01543
G1 X164.386 Y57.569 E0.17007
G1 X164.386 Y58.161 E0.01543
G1 X169.588 Y52.959 E0.19189
G1 X170.179 Y52.959 E0.01543
G1 X164.386 Y58.752 E0.21371
G1 X164.386 Y59.344 E0.01543
G1 X170.771 Y52.959 E0.23553
G1 X171.362 Y52.959 E0.01543
G1 X164.386 Y59.935 E0.25735
G1 X164.386 Y60.527 E0.01543
G1 X171.954 Y52.959 E0.27917
G1 X172.545 Y52.959 E0.01543
G1 X164.386 Y61.118 E0.30099
G1 X164.386 Y61.710 E0.01543
G1 X173.137 Y52.959 E0.32282
G1 X173.728 Y52.959 E0.01543
G1 X164.386 Y62.301 E0.34464
G1 X164.386 Y62.893 E0.01543
G1 X174.320 Y52.959 E0.36646
G1 X174.911 Y52.959 E0.01543
G1 X164.386 Y63.484 E0.38828
G1 X164.386 Y64.076 E0.01543
